; generated by Slic3r 1.2.9 on 2016-10-09 at 15:18:05

; external perimeters extrusion width = 0.40mm
; perimeters extrusion width = 0.68mm
; infill extrusion width = 1.28mm
; solid infill extrusion width = 0.68mm
; top infill extrusion width = 0.68mm

M107
M104 S235 ; set temperature
G28 ; home all axes
;G1 Z5 F5000 ; lift nozzle

M109 S235 ; wait for temperature to be reached
G21 ; set units to millimeters
G90 ; use absolute coordinates
M82 ; use absolute distances for extrusion
G92 E0
G1 Z0.350 F3600.000
G1 E-2.00000 F2400.00000
G92 E0
G1 X79.915 Y80.753 F3600.000
G1 E2.00000 F2400.00000
G1 X81.668 Y79.274 E2.17691 F1800.000
G1 X83.820 Y78.481 E2.35383
G1 X85.000 Y78.375 E2.44520
G1 X115.000 Y78.375 E4.75937
G1 X117.259 Y78.772 E4.93629
G1 X119.247 Y79.915 E5.11320 F1800.000
G1 X120.726 Y81.668 E5.29012
G1 X121.519 Y83.820 E5.46703
G1 X121.625 Y85.000 E5.55840
G1 X121.625 Y115.000 E7.87257
G1 X121.228 Y117.259 E8.04949
G1 X120.085 Y119.247 E8.22640
G1 X118.332 Y120.726 E8.40332
G1 X116.180 Y121.519 E8.58023
G1 X115.000 Y121.625 E8.67161
G1 X85.000 Y121.625 E10.98578
G1 X82.741 Y121.228 E11.16269
G1 X80.753 Y120.085 E11.33961
G1 X79.274 Y118.332 E11.51652
G1 X78.481 Y116.180 E11.69343
G1 X78.375 Y115.000 E11.78481
G1 X78.375 Y85.000 E14.09898
G1 X78.772 Y82.741 E14.27589
G1 X79.886 Y80.805 E14.44818
G1 E12.44818 F2400.00000
G92 E0
G1 X107.347 Y108.160 F3600.000
G1 E2.00000 F2400.00000
G1 X105.490 Y109.509 E2.17707 F1800.000
G1 X103.393 Y110.443 E2.35414
G1 X101.148 Y110.920 E2.53122
G1 X98.852 Y110.920 E2.70829
G1 X96.607 Y110.443 E2.88536
G1 X94.510 Y109.509 E3.06243
G1 X92.653 Y108.160 E3.23951
G1 X91.117 Y106.454 E3.41658
G1 X89.969 Y104.466 E3.59365
G1 X89.260 Y102.283 E3.77072
G1 X89.020 Y100.000 E3.94780
G1 X89.260 Y97.717 E4.12487
G1 X89.969 Y95.534 E4.30194
G1 X91.117 Y93.546 E4.47901
G1 X92.653 Y91.840 E4.65609
G1 X94.510 Y90.491 E4.83316
G1 X96.607 Y89.557 E5.01023
G1 X98.852 Y89.080 E5.18730
G1 X101.148 Y89.080 E5.36438 F1800.000
G1 X103.393 Y89.557 E5.54145
G1 X105.490 Y90.491 E5.71852
G1 X107.347 Y91.840 E5.89559
G1 X108.883 Y93.546 E6.07267
G1 X110.031 Y95.534 E6.24974
G1 X110.740 Y97.717 E6.42681
G1 X110.980 Y100.000 E6.60388
G1 X110.740 Y102.283 E6.78095
G1 X110.031 Y104.466 E6.95803
G1 X108.883 Y106.454 E7.13510
G1 X107.387 Y108.115 E7.30754
G1 X106.927 Y107.693 F3600.000
G1 X105.176 Y108.965 E7.47448 F1800.000
G1 X103.199 Y109.845 E7.64142
G1 X101.082 Y110.295 E7.80836
G1 X98.918 Y110.295 E7.97530
G1 X96.801 Y109.845 E8.14224
G1 X94.824 Y108.965 E8.30918
G1 X93.073 Y107.693 E8.47612
G1 X91.625 Y106.085 E8.64306
G1 X90.543 Y104.211 E8.81000
G1 X89.874 Y102.152 E8.97694
G1 X89.648 Y100.000 E9.14388
G1 X89.874 Y97.848 E9.31082
G1 X90.543 Y95.789 E9.47776
G1 X91.625 Y93.915 E9.64470
G1 X93.073 Y92.307 E9.81164
G1 X94.824 Y91.035 E9.97858
G1 X96.801 Y90.155 E10.14552
G1 X98.918 Y89.705 E10.31246
G1 X101.082 Y89.705 E10.47940 F1800.000
G1 X103.199 Y90.155 E10.64634
G1 X105.176 Y91.035 E10.81328
G1 X106.927 Y92.307 E10.98022
G1 X108.375 Y93.915 E11.14716
G1 X109.457 Y95.789 E11.31409
G1 X110.126 Y97.848 E11.48103
G1 X110.352 Y100.000 E11.64797
G1 X110.126 Y102.152 E11.81491
G1 X109.457 Y104.211 E11.98185
G1 X108.375 Y106.085 E12.14879
G1 X106.967 Y107.648 E12.31110
G1 X106.996 Y108.087 F3600.000
G1 X114.025 Y114.025 F3600.000
G1 X85.975 Y114.025 E14.47487 F1800.000
G1 X85.975 Y85.975 E16.63864
G1 X114.025 Y85.975 E18.80241
G1 X114.025 Y113.965 E20.96155
G1 X114.650 Y114.650 F3600.000
G1 X85.350 Y114.650 E23.22172 F1800.000
G1 X85.350 Y85.350 E25.48190
G1 X114.650 Y85.350 E27.74207
G1 X114.650 Y114.590 E29.99762
G1 X114.304 Y114.450 F3600.000
G1 X113.647 Y98.162 F3600.000
G1 X109.945 Y94.461 E30.40189 F1800.000
G1 X110.645 Y96.045 F3600.000
G1 X113.647 Y99.046 E30.72976 F1800.000
G1 X113.647 Y99.931 E30.79810
G1 X111.071 Y97.356 E31.07945
G1 X111.205 Y98.374 E31.15881
G1 X113.647 Y100.816 E31.42553
G1 X113.647 Y101.701 E31.49388
G1 X111.309 Y99.363 E31.74925
G1 X111.320 Y100.260 E31.81850
G1 X113.647 Y102.586 E32.07259
G1 X113.647 Y103.471 E32.14093
G1 X111.236 Y101.060 E32.40421
G1 X111.152 Y101.861 E32.46639
G1 X113.647 Y104.356 E32.73886
G1 X113.647 Y105.240 E32.80720
G1 X111.001 Y102.595 E33.09620
G1 X110.784 Y103.263 E33.15044
G1 X113.647 Y106.125 E33.46313
G1 X113.647 Y107.010 E33.53148
G1 X110.567 Y103.930 E33.86787
G1 X110.341 Y104.589 E33.92168
G1 X113.647 Y107.895 E34.28275
G1 X113.647 Y108.780 E34.35110
G1 X110.017 Y105.150 E34.74755
G1 X109.693 Y105.711 E34.79758
G1 X113.647 Y109.665 E35.22941
G1 X113.647 Y110.550 E35.29776
G1 X109.369 Y106.272 E35.76496
G1 X109.010 Y106.798 E35.81413
G1 X113.647 Y111.434 E36.32061
G1 X113.647 Y112.319 E36.38895
G1 X108.590 Y107.263 E36.94123
G1 X108.171 Y107.729 E36.98962
G1 X113.647 Y113.204 E37.58769
G1 X113.204 Y113.647 E37.63601
G1 X107.752 Y108.194 E38.23154
G1 X107.283 Y108.610 E38.27996
G1 X112.319 Y113.647 E38.83012
G1 X111.434 Y113.647 E38.89846
G1 X106.770 Y108.982 E39.40795
G1 X106.258 Y109.355 E39.45688
G1 X110.550 Y113.647 E39.92569
G1 X109.665 Y113.647 E39.99404
G1 X105.745 Y109.727 E40.42218
G1 X105.158 Y110.025 E40.47302
G1 X108.780 Y113.647 E40.86861
G1 X107.895 Y113.647 E40.93695
G1 X104.546 Y110.297 E41.30277
G1 X103.934 Y110.570 E41.35454
G1 X107.010 Y113.647 E41.69058
G1 X106.125 Y113.647 E41.75892
G1 X103.303 Y110.824 E42.06724
G1 X102.573 Y110.979 E42.12486
G1 X105.240 Y113.647 E42.41624
G1 X104.356 Y113.647 E42.48458
G1 X101.843 Y111.134 E42.75902
G1 X101.113 Y111.289 E42.81664
G1 X103.471 Y113.647 E43.07413
G1 X102.586 Y113.647 E43.14247
G1 X100.238 Y111.299 E43.39893
G1 X99.353 Y111.299 E43.46727
G1 X101.701 Y113.647 E43.72373
G1 X100.816 Y113.647 E43.79207
G1 X98.415 Y111.245 E44.05436
G1 X97.291 Y111.006 E44.14309
G1 X99.931 Y113.647 E44.43147
G1 X99.046 Y113.647 E44.49981
G1 X96.105 Y110.706 E44.82106
G1 X94.510 Y109.995 F3600.000
G1 X98.162 Y113.647 E45.21987 F1800.000
G1 X97.277 Y113.647 E45.28821
G1 X86.353 Y102.723 E46.48136
G1 X86.353 Y101.838 E46.54971
G1 X90.055 Y105.540 E46.95399
G1 X89.355 Y103.955 F3600.000
G1 X86.353 Y100.954 E47.28186 F1800.000
G1 X86.353 Y100.069 E47.35020
G1 X88.929 Y102.644 E47.63155
G1 X88.795 Y101.626 E47.71091
G1 X86.353 Y99.184 E47.97763
G1 X86.353 Y98.299 E48.04597
G1 X88.691 Y100.637 E48.30134
G1 X88.680 Y99.740 E48.37060
G1 X86.353 Y97.414 E48.62469
G1 X86.353 Y96.529 E48.69303
G1 X88.764 Y98.940 E48.95630
G1 X88.848 Y98.139 E49.01849
G1 X86.353 Y95.644 E49.29096
G1 X86.353 Y94.760 E49.35930
G1 X88.999 Y97.405 E49.64829
G1 X89.216 Y96.737 E49.70253
G1 X86.353 Y93.875 E50.01522
G1 X86.353 Y92.990 E50.08357
G1 X89.433 Y96.070 E50.41997
G1 X89.659 Y95.411 E50.47377
G1 X86.353 Y92.105 E50.83484
G1 X86.353 Y91.220 E50.90319
G1 X89.983 Y94.850 E51.29964
G1 X90.307 Y94.289 E51.34967
G1 X86.353 Y90.335 E51.78150
G1 X86.353 Y89.450 E51.84984
G1 X90.631 Y93.728 E52.31705
G1 X90.990 Y93.202 E52.36622
G1 X86.353 Y88.566 E52.87269
G1 X86.353 Y87.681 E52.94104
G1 X91.409 Y92.737 E53.49331
G1 X91.829 Y92.271 E53.54170
G1 X86.353 Y86.796 E54.13976
G1 X86.796 Y86.353 E54.18809
G1 X92.248 Y91.806 E54.78362
G1 X92.717 Y91.390 E54.83204
G1 X87.681 Y86.353 E55.38220
G1 X88.566 Y86.353 E55.45054
G1 X93.230 Y91.018 E55.96003
G1 X93.742 Y90.645 E56.00896
G1 X89.450 Y86.353 E56.47778
G1 X90.335 Y86.353 E56.54612
G1 X94.255 Y90.273 E56.97426
G1 X94.842 Y89.975 E57.02510
G1 X91.220 Y86.353 E57.42069
G1 X92.105 Y86.353 E57.48904
G1 X95.454 Y89.703 E57.85486
G1 X96.066 Y89.430 E57.90662
G1 X92.990 Y86.353 E58.24266
G1 X93.875 Y86.353 E58.31101
G1 X96.697 Y89.176 E58.61933
G1 X97.427 Y89.021 E58.67695
G1 X94.760 Y86.353 E58.96833
G1 X95.644 Y86.353 E59.03667
G1 X98.157 Y88.866 E59.31110
G1 X98.887 Y88.711 E59.36873
G1 X96.529 Y86.353 E59.62622
G1 X97.414 Y86.353 E59.69456
G1 X99.762 Y88.701 E59.95102
G1 X100.647 Y88.701 E60.01936
G1 X98.299 Y86.353 E60.27582
G1 X99.184 Y86.353 E60.34416
G1 X101.585 Y88.755 E60.60645
G1 X102.709 Y88.994 E60.69518
G1 X100.069 Y86.353 E60.98355
G1 X100.953 Y86.353 E61.05190
G1 X103.894 Y89.294 E61.37314
G1 X105.489 Y90.005 F3600.000
G1 X101.838 Y86.353 E61.77195 F1800.000
G1 X102.723 Y86.353 E61.84029
G1 X113.647 Y97.277 E63.03345
G1 X113.647 Y96.392 E63.10179
G1 X103.608 Y86.353 E64.19829
G1 X104.493 Y86.353 E64.26664
G1 X113.647 Y95.507 E65.26649
G1 X113.647 Y94.622 E65.33483
G1 X105.378 Y86.353 E66.23803
G1 X106.263 Y86.353 E66.30638
G1 X113.647 Y93.737 E67.11292
G1 X113.647 Y92.853 E67.18127
G1 X107.147 Y86.353 E67.89116
G1 X108.032 Y86.353 E67.95950
G1 X113.647 Y91.968 E68.57274
G1 X113.647 Y91.083 E68.64109
G1 X108.917 Y86.353 E69.15768
G1 X109.802 Y86.353 E69.22602
G1 X113.647 Y90.198 E69.64596
G1 X113.647 Y89.313 E69.71430
G1 X110.687 Y86.353 E70.03759
G1 X111.572 Y86.353 E70.10593
G1 X113.647 Y88.428 E70.33256
G1 X113.647 Y87.543 E70.40091
G1 X112.457 Y86.353 E70.53089
G1 X113.341 Y86.353 E70.59923
G1 X113.647 Y86.659 E70.63256
G1 E68.63256 F2400.00000
G92 E0
G1 X96.392 Y113.647 F3600.000
G1 E2.00000 F2400.00000
G1 X86.353 Y103.608 E3.09650 F1800.000
G1 X86.353 Y104.493 E3.16484
G1 X95.507 Y113.647 E4.16469
G1 X94.622 Y113.647 E4.23303
G1 X86.353 Y105.378 E5.13623
G1 X86.353 Y106.263 E5.20457
G1 X93.737 Y113.647 E6.01112
G1 X92.853 Y113.647 E6.07946
G1 X86.353 Y107.147 E6.78935
G1 X86.353 Y108.032 E6.85769
G1 X91.968 Y113.647 E7.47093
G1 X91.083 Y113.647 E7.53928
G1 X86.353 Y108.917 E8.05586
G1 X86.353 Y109.802 E8.12421
G1 X90.198 Y113.647 E8.54414
G1 X89.313 Y113.647 E8.61248
G1 X86.353 Y110.687 E8.93576
G1 X86.353 Y111.572 E9.00411
G1 X88.428 Y113.647 E9.23074
G1 X87.543 Y113.647 E9.29908
G1 X86.353 Y112.457 E9.42906
G1 X86.353 Y113.341 E9.49740
G1 X86.659 Y113.647 E9.53072
G1 Z0.450 F3600.000
G1 E7.53072 F2400.00000
G92 E0
G1 X107.199 Y107.941 F3600.000
G1 E2.00000 F2400.00000
G1 X105.361 Y109.286 E2.05289 F3600.000
G1 X103.313 Y110.198 E2.10496
G1 X101.121 Y110.664 E2.15702
G1 X98.879 Y110.664 E2.20909
G1 X96.687 Y110.198 E2.26115
G1 X94.639 Y109.286 E2.31322
G1 X92.825 Y107.968 E2.36528
G1 X91.325 Y106.303 E2.41735
G1 X90.205 Y104.361 E2.46941
G1 X89.512 Y102.229 E2.52148
G1 X89.278 Y100.000 E2.57354
G1 X89.512 Y97.771 E2.62561
G1 X90.205 Y95.639 E2.67767
G1 X91.325 Y93.697 E2.72974
G1 X92.825 Y92.032 E2.78180
G1 X94.639 Y90.714 E2.83387
G1 X96.687 Y89.802 E2.88593
G1 X98.879 Y89.336 E2.93800
G1 X101.121 Y89.336 E2.99006 F3600.000
G1 X103.313 Y89.802 E3.04213
G1 X105.361 Y90.714 E3.09419
G1 X107.175 Y92.032 E3.14626
G1 X108.675 Y93.697 E3.19832
G1 X109.795 Y95.639 E3.25039
G1 X110.488 Y97.771 E3.30245
G1 X110.722 Y100.000 E3.35452
G1 X110.488 Y102.229 E3.40658
G1 X109.795 Y104.361 E3.45865
G1 X108.675 Y106.303 E3.51071
G1 X107.239 Y107.897 E3.56054
G1 X106.826 Y107.581 F3600.000
G1 X105.101 Y108.834 E3.58901 F1800.000
G1 X103.152 Y109.702 E3.61748
G1 X101.066 Y110.145 E3.64595
G1 X98.934 Y110.145 E3.67443
G1 X96.848 Y109.702 E3.70290
G1 X94.899 Y108.834 E3.73137
G1 X93.174 Y107.581 E3.75984
G1 X91.747 Y105.996 E3.78832
G1 X90.681 Y104.149 E3.81679
G1 X90.022 Y102.121 E3.84526
G1 X89.799 Y100.000 E3.87373
G1 X90.022 Y97.879 E3.90221
G1 X90.681 Y95.851 E3.93068
G1 X91.747 Y94.004 E3.95915
G1 X93.174 Y92.419 E3.98762
G1 X94.899 Y91.166 E4.01610
G1 X96.848 Y90.298 E4.04457
G1 X98.934 Y89.855 E4.07304
G1 X101.066 Y89.855 E4.10151 F1800.000
G1 X103.152 Y90.298 E4.12999
G1 X105.101 Y91.166 E4.15846
G1 X106.826 Y92.419 E4.18693
G1 X108.253 Y94.004 E4.21540
G1 X109.319 Y95.851 E4.24388
G1 X109.978 Y97.879 E4.27235
G1 X110.201 Y100.000 E4.30082
G1 X109.978 Y102.121 E4.32929
G1 X109.319 Y104.149 E4.35777
G1 X108.253 Y105.996 E4.38624
G1 X106.866 Y107.536 E4.41391
G1 X106.895 Y107.975 F3600.000
G1 X114.281 Y114.281 F3600.000
G1 X85.719 Y114.281 E5.07733 F3600.000
G1 X85.719 Y85.719 E5.74075
G1 X114.281 Y85.719 E6.40417
G1 X114.281 Y114.221 E7.06619
G1 X114.800 Y114.800 F3600.000
G1 X85.200 Y114.800 E7.46138 F1800.000
G1 X85.200 Y85.200 E7.85657
G1 X114.800 Y85.200 E8.25176
G1 X114.800 Y114.740 E8.64615
G1 X114.454 Y114.600 F3600.000
G1 X113.562 Y113.881 F3600.000
G1 X113.881 Y113.562 E8.65681 F1200.000
G1 X113.881 Y112.616 E8.67915
G1 X112.616 Y113.881 E8.72139
G1 X111.669 Y113.881 E8.74373
G1 X113.881 Y111.669 E8.81756
G1 X113.881 Y110.723 E8.83989
G1 X110.723 Y113.881 E8.94531
G1 X109.777 Y113.881 E8.96764
G1 X113.881 Y109.777 E9.10465
G1 X113.881 Y108.830 E9.12698
G1 X108.830 Y113.881 E9.29557
G1 X107.884 Y113.881 E9.31790
G1 X113.881 Y107.884 E9.51807
G1 X113.881 Y106.938 E9.54041
G1 X106.938 Y113.881 E9.77217
G1 X105.991 Y113.881 E9.79450
G1 X113.881 Y105.991 E10.05784
G1 X113.881 Y105.045 E10.08018
G1 X105.045 Y113.881 E10.37511
G1 X104.099 Y113.881 E10.39744
G1 X113.881 Y104.099 E10.72395
G1 X113.881 Y103.152 E10.74629
G1 X103.152 Y113.881 E11.10439
G1 X102.206 Y113.881 E11.12672
G1 X113.881 Y102.206 E11.51641
G1 X113.881 Y101.260 E11.53874
G1 X109.786 Y105.356 E11.67545
G1 X110.478 Y103.717 F3600.000
G1 X113.881 Y100.313 E11.78904 F1200.000
G1 X113.881 Y99.367 E11.81138
G1 X110.893 Y102.356 E11.91113
G1 X111.004 Y101.299 E11.93623
G1 X113.881 Y98.421 E12.03228
G1 X113.881 Y97.474 E12.05461
G1 X111.115 Y100.241 E12.14695
G1 X111.044 Y99.365 E12.16769
G1 X113.881 Y96.528 E12.26239
G1 X113.881 Y95.582 E12.28472
G1 X110.954 Y98.509 E12.38242
G1 X110.840 Y97.677 E12.40225
G1 X113.881 Y94.635 E12.50376
G1 X113.881 Y93.689 E12.52609
G1 X110.608 Y96.963 E12.63535
G1 X110.376 Y96.248 E12.65307
G1 X113.881 Y92.743 E12.77008
G1 X113.881 Y91.797 E12.79241
G1 X110.140 Y95.538 E12.91728
G1 X109.794 Y94.938 E12.93363
G1 X113.881 Y90.850 E13.07007
G1 X113.881 Y89.904 E13.09240
G1 X109.447 Y94.338 E13.24040
G1 X109.101 Y93.738 E13.25675
G1 X113.881 Y88.958 E13.41630
G1 X113.881 Y88.011 E13.43864
G1 X108.690 Y93.203 E13.61191
G1 X108.242 Y92.705 E13.62773
G1 X113.881 Y87.065 E13.81597
G1 X113.861 Y86.139 E13.83783
G1 X107.793 Y92.207 E14.04037
G1 X107.333 Y91.721 E14.05617
G1 X112.935 Y86.119 E14.24315
G1 X111.989 Y86.119 E14.26548
G1 X106.785 Y91.322 E14.43917
G1 X106.237 Y90.924 E14.45516
G1 X111.042 Y86.119 E14.61556
G1 X110.096 Y86.119 E14.63789
G1 X105.689 Y90.526 E14.78500
G1 X105.072 Y90.196 E14.80150
G1 X109.150 Y86.119 E14.93760
G1 X108.203 Y86.119 E14.95994
G1 X104.417 Y89.905 E15.08631
G1 X103.762 Y89.613 E15.10323
G1 X107.257 Y86.119 E15.21987
G1 X106.311 Y86.119 E15.24220
G1 X103.063 Y89.367 E15.35061
G1 X102.282 Y89.201 E15.36944
G1 X105.364 Y86.119 E15.47231
G1 X104.418 Y86.119 E15.49465
G1 X101.502 Y89.035 E15.59198
G1 X100.654 Y88.936 E15.61213
G1 X103.472 Y86.119 E15.70617
G1 X102.525 Y86.119 E15.72850
G1 X99.708 Y88.936 E15.82255
G1 X98.761 Y88.936 E15.84488
G1 X101.579 Y86.119 E15.93893
G1 X100.633 Y86.119 E15.96126
G1 X97.581 Y89.170 E16.06312
G1 X96.379 Y89.426 E16.09212
G1 X99.686 Y86.119 E16.20250
G1 X98.740 Y86.119 E16.22484
G1 X94.673 Y90.185 E16.36057
G1 X94.955 Y86.119 F3600.000
G1 X86.119 Y94.955 E16.65550 F1200.000
G1 X86.119 Y94.009 E16.67783
G1 X94.009 Y86.119 E16.94117
G1 X93.062 Y86.119 E16.96351
G1 X86.119 Y93.062 E17.19526
G1 X86.119 Y92.116 E17.21760
G1 X92.116 Y86.119 E17.41777
G1 X91.170 Y86.119 E17.44010
G1 X86.119 Y91.170 E17.60869
G1 X86.119 Y90.223 E17.63102
G1 X90.223 Y86.119 E17.76802
G1 X89.277 Y86.119 E17.79035
G1 X86.119 Y89.277 E17.89577
G1 X86.119 Y88.331 E17.91810
G1 X88.331 Y86.119 E17.99193
G1 X87.384 Y86.119 E18.01427
G1 X86.119 Y87.384 E18.05651
G1 X86.119 Y86.438 E18.07884
G1 X86.438 Y86.119 E18.08950
G1 X90.215 Y94.644 F3600.000
G1 X86.119 Y98.740 E18.22621 F1200.000
G1 X86.119 Y99.686 E18.24855
G1 X89.522 Y96.283 E18.36214
G1 X89.107 Y97.644 E18.39571
G1 X86.119 Y100.633 E18.49547
G1 X86.119 Y101.579 E18.51781
G1 X88.996 Y98.701 E18.61386
G1 X88.885 Y99.759 E18.63895
G1 X86.119 Y102.525 E18.73129
G1 X86.119 Y103.472 E18.75362
G1 X88.956 Y100.634 E18.84832
G1 X89.046 Y101.491 E18.86865
G1 X86.119 Y104.418 E18.96635
G1 X86.119 Y105.364 E18.98868
G1 X89.160 Y102.323 E19.09019
G1 X89.392 Y103.037 E19.10792
G1 X86.119 Y106.311 E19.21717
G1 X86.119 Y107.257 E19.23951
G1 X89.624 Y103.752 E19.35651
G1 X89.860 Y104.462 E19.37417
G1 X86.119 Y108.203 E19.49905
G1 X86.119 Y109.150 E19.52138
G1 X90.206 Y105.062 E19.65782
