; generated by Slic3r 1.2.9 on 2016-10-09 at 16:46:31

; external perimeters extrusion width = 0.40mm
; perimeters extrusion width = 0.48mm
; infill extrusion width = 0.48mm
; solid infill extrusion width = 0.48mm
; top infill extrusion width = 0.48mm

M104 S235 ; set temperature
G28 ; home all axes
;G1 Z5 F5000 ; lift nozzle

M109 S235 ; wait for temperature to be reached
G21 ; set units to millimeters
G90 ; use absolute coordinates
M82 ; use absolute distances for extrusion
G92 E0
G1 Z0.350 F3600.000
G1 E-2.00000 F2400.00000
G92 E0
G1 X79.296 Y80.526 F3600.000
G1 E2.00000 F2400.00000
G1 X81.069 Y78.909 E2.18513 F1800.000
G1 X83.273 Y77.959 E2.37026
G1 X85.000 Y77.750 E2.50444
G1 X115.000 Y77.750 E4.81861
G1 X117.367 Y78.147 E5.00375
G1 X119.474 Y79.296 E5.18888 F1800.000
G1 X121.091 Y81.069 E5.37401
G1 X122.041 Y83.273 E5.55914
G1 X122.250 Y85.000 E5.69332
G1 X122.250 Y115.000 E8.00749
G1 X121.853 Y117.367 E8.19262
G1 X120.704 Y119.474 E8.37775
G1 X118.931 Y121.091 E8.56288
G1 X116.727 Y122.041 E8.74801
G1 X115.000 Y122.250 E8.88220
G1 X85.000 Y122.250 E11.19637
G1 X82.633 Y121.853 E11.38150
G1 X80.526 Y120.704 E11.56663
G1 X78.909 Y118.931 E11.75176
G1 X77.959 Y116.727 E11.93689
G1 X77.750 Y115.000 E12.07107
G1 X77.750 Y85.000 E14.38524
G1 X78.147 Y82.633 E14.57037
G1 X79.267 Y80.578 E14.75088
G1 X79.860 Y80.850 F3600.000
G1 X79.915 Y80.753 E14.75951 F1800.000
G1 X81.668 Y79.274 E14.93642
G1 X83.820 Y78.481 E15.11333
G1 X85.000 Y78.375 E15.20471
G1 X115.000 Y78.375 E17.51888
G1 X117.259 Y78.772 E17.69579
G1 X119.247 Y79.915 E17.87271 F1800.000
G1 X120.726 Y81.668 E18.04962
G1 X121.519 Y83.820 E18.22654
G1 X121.625 Y85.000 E18.31791
G1 X121.625 Y115.000 E20.63208
G1 X121.228 Y117.259 E20.80899
G1 X120.085 Y119.247 E20.98591
G1 X118.332 Y120.726 E21.16282
G1 X116.180 Y121.519 E21.33974
G1 X115.000 Y121.625 E21.43111
G1 X85.000 Y121.625 E23.74528
G1 X82.741 Y121.228 E23.92220
G1 X80.753 Y120.085 E24.09911
G1 X79.274 Y118.332 E24.27603
G1 X78.481 Y116.180 E24.45294
G1 X78.375 Y115.000 E24.54431
G1 X78.375 Y85.000 E26.85848
G1 X78.772 Y82.741 E27.03540
G1 X79.830 Y80.902 E27.19905
G1 E25.19905 F2400.00000
G92 E0
G1 X107.768 Y108.627 F3600.000
G1 E2.00000 F2400.00000
G1 X105.804 Y110.053 E2.18721 F1800.000
G1 X103.587 Y111.040 E2.37441
G1 X101.213 Y111.545 E2.56161
G1 X98.787 Y111.545 E2.74882
G1 X96.413 Y111.040 E2.93603
G1 X94.196 Y110.053 E3.12323
G1 X92.232 Y108.627 E3.31044
G1 X90.608 Y106.823 E3.49764
G1 X89.395 Y104.722 E3.68485
G1 X88.645 Y102.414 E3.87205
G1 X88.391 Y100.000 E4.05926
G1 X88.645 Y97.586 E4.24646
G1 X89.395 Y95.278 E4.43367
G1 X90.608 Y93.177 E4.62087
G1 X92.232 Y91.373 E4.80808
G1 X94.196 Y89.947 E4.99528
G1 X96.413 Y88.960 E5.18249
G1 X98.787 Y88.455 E5.36969
G1 X101.213 Y88.455 E5.55690 F1800.000
G1 X103.587 Y88.960 E5.74410
G1 X105.804 Y89.947 E5.93131
G1 X107.768 Y91.373 E6.11851
G1 X109.392 Y93.177 E6.30572
G1 X110.605 Y95.278 E6.49292
G1 X111.355 Y97.586 E6.68013
G1 X111.609 Y100.000 E6.86733
G1 X111.355 Y102.414 E7.05454
G1 X110.605 Y104.722 E7.24174
G1 X109.392 Y106.823 E7.42895
G1 X107.808 Y108.582 E7.61153
G1 X107.347 Y108.160 F3600.000
G1 X105.490 Y109.509 E7.78860 F1800.000
G1 X103.393 Y110.443 E7.96567
G1 X101.148 Y110.920 E8.14274
G1 X98.852 Y110.920 E8.31982
G1 X96.607 Y110.443 E8.49689
G1 X94.510 Y109.509 E8.67396
G1 X92.653 Y108.160 E8.85103
G1 X91.117 Y106.454 E9.02810
G1 X89.969 Y104.466 E9.20518
G1 X89.260 Y102.283 E9.38225
G1 X89.020 Y100.000 E9.55932
G1 X89.260 Y97.717 E9.73639
G1 X89.969 Y95.534 E9.91347
G1 X91.117 Y93.546 E10.09054
G1 X92.653 Y91.840 E10.26761
G1 X94.510 Y90.491 E10.44468
G1 X96.607 Y89.557 E10.62176
G1 X98.852 Y89.080 E10.79883
G1 X101.148 Y89.080 E10.97590 F1800.000
G1 X103.393 Y89.557 E11.15297
G1 X105.490 Y90.491 E11.33005
G1 X107.347 Y91.840 E11.50712
G1 X108.883 Y93.546 E11.68419
G1 X110.031 Y95.534 E11.86126
G1 X110.740 Y97.717 E12.03834
G1 X110.980 Y100.000 E12.21541
G1 X110.740 Y102.283 E12.39248
G1 X110.031 Y104.466 E12.56955
G1 X108.883 Y106.454 E12.74662
G1 X107.387 Y108.115 E12.91907
G1 X106.927 Y107.693 F3600.000
G1 X105.176 Y108.965 E13.08601 F1800.000
G1 X103.199 Y109.845 E13.25295
G1 X101.082 Y110.295 E13.41989
G1 X98.918 Y110.295 E13.58683
G1 X96.801 Y109.845 E13.75377
G1 X94.824 Y108.965 E13.92071
G1 X93.073 Y107.693 E14.08765
G1 X91.625 Y106.085 E14.25459
G1 X90.543 Y104.211 E14.42153
G1 X89.874 Y102.152 E14.58847
G1 X89.648 Y100.000 E14.75541
G1 X89.874 Y97.848 E14.92234
G1 X90.543 Y95.789 E15.08928
G1 X91.625 Y93.915 E15.25622
G1 X93.073 Y92.307 E15.42316
G1 X94.824 Y91.035 E15.59010
G1 X96.801 Y90.155 E15.75704
G1 X98.918 Y89.705 E15.92398
G1 X101.082 Y89.705 E16.09092 F1800.000
G1 X103.199 Y90.155 E16.25786
G1 X105.176 Y91.035 E16.42480
G1 X106.927 Y92.307 E16.59174
G1 X108.375 Y93.915 E16.75868
G1 X109.457 Y95.789 E16.92562
G1 X110.126 Y97.848 E17.09256
G1 X110.352 Y100.000 E17.25950
G1 X110.126 Y102.152 E17.42644
G1 X109.457 Y104.211 E17.59338
G1 X108.375 Y106.085 E17.76032
G1 X106.967 Y107.648 E17.92263
G1 X106.996 Y108.087 F3600.000
G1 X113.400 Y113.400 F3600.000
G1 X86.600 Y113.400 E19.98999 F1800.000
G1 X86.600 Y86.600 E22.05735
G1 X113.400 Y86.600 E24.12471
G1 X113.400 Y113.340 E26.18745
G1 X114.025 Y114.025 F3600.000
G1 X85.975 Y114.025 E28.35122 F1800.000
G1 X85.975 Y85.975 E30.51498
G1 X114.025 Y85.975 E32.67875
G1 X114.025 Y113.965 E34.83789
G1 X114.650 Y114.650 F3600.000
G1 X85.350 Y114.650 E37.09807 F1800.000
G1 X85.350 Y85.350 E39.35824
G1 X114.650 Y85.350 E41.61841
G1 X114.650 Y114.590 E43.87396
G1 X114.304 Y114.450 F3600.000
G1 X96.159 Y113.022 F3600.000
G1 X92.697 Y109.560 E44.25323 F1800.000
G1 X94.859 Y110.835 F3600.000
G1 X97.046 Y113.022 E44.49284 F1800.000
G1 X97.934 Y113.022 E44.56160
G1 X96.359 Y111.447 E44.73410
G1 X97.486 Y111.687 E44.82337
G1 X98.821 Y113.022 E44.96962
G1 X98.611 Y111.924 E45.05625
G1 X99.709 Y113.022 E45.17656
G1 X100.596 Y113.022 E45.24531
G1 X99.498 Y111.924 E45.36563
G1 X100.386 Y111.924 E45.43438
G1 X101.484 Y113.022 E45.55469
G1 X102.371 Y113.022 E45.62345
G1 X101.249 Y111.899 E45.74643
G1 X101.981 Y111.744 E45.80440
G1 X103.259 Y113.022 E45.94442
G1 X104.146 Y113.022 E46.01317
G1 X102.713 Y111.588 E46.17024
G1 X103.445 Y111.432 E46.22821
G1 X105.034 Y113.022 E46.40232
G1 X105.921 Y113.022 E46.47108
G1 X104.086 Y111.186 E46.67217
G1 X104.700 Y110.913 E46.72424
G1 X106.809 Y113.022 E46.95529
G1 X107.697 Y113.022 E47.02405
G1 X105.314 Y110.639 E47.28505
G1 X105.928 Y110.366 E47.33712
G1 X108.584 Y113.022 E47.62808
G1 X109.472 Y113.022 E47.69684
G1 X106.442 Y109.993 E48.02871
G1 X106.957 Y109.619 E48.07793
G1 X110.359 Y113.022 E48.45072
G1 X111.247 Y113.022 E48.51948
G1 X107.471 Y109.246 E48.93318
G1 X107.984 Y108.871 E48.98239
G1 X112.134 Y113.022 E49.43712
G1 X113.002 Y113.002 E49.50435
G1 X108.404 Y108.404 E50.00806
G1 X108.825 Y107.937 E50.05674
G1 X113.022 Y112.134 E50.51658
G1 X113.022 Y111.247 E50.58533
G1 X109.245 Y107.470 E50.99910
G1 X109.666 Y107.003 E51.04778
G1 X113.022 Y110.359 E51.41547
G1 X113.022 Y109.472 E51.48423
G1 X109.993 Y106.442 E51.81610
G1 X110.317 Y105.880 E51.86644
G1 X113.022 Y108.584 E52.16272
G1 X113.022 Y107.697 E52.23147
G1 X110.642 Y105.317 E52.49216
G1 X110.959 Y104.746 E52.54274
G1 X113.022 Y106.809 E52.76875
G1 X113.022 Y105.921 E52.83751
G1 X111.176 Y104.076 E53.03967
G1 X111.394 Y103.406 E53.09424
G1 X113.022 Y105.034 E53.27255
G1 X113.022 Y104.146 E53.34131
G1 X111.612 Y102.737 E53.49578
G1 X111.766 Y102.003 E53.55386
G1 X113.022 Y103.259 E53.69148
G1 X113.022 Y102.371 E53.76024
G1 X111.850 Y101.200 E53.88862
G1 X111.934 Y100.397 E53.95118
G1 X113.022 Y101.484 E54.07031
G1 X113.022 Y100.596 E54.13906
G1 X111.954 Y99.529 E54.25600
G1 X111.850 Y98.537 E54.33325
G1 X113.022 Y99.709 E54.46160
G1 X113.022 Y98.821 E54.53036
G1 X111.746 Y97.546 E54.67013
G1 X111.383 Y96.295 E54.77097
G1 X113.022 Y97.934 E54.95046
G1 X113.022 Y97.046 E55.01922
G1 X110.956 Y94.981 E55.24551
G1 X109.770 Y92.907 F3600.000
G1 X113.022 Y96.159 E55.60176 F1800.000
G1 X113.022 Y95.271 E55.67052
G1 X104.729 Y86.978 E56.57908
G1 X105.616 Y86.978 E56.64784
G1 X113.022 Y94.384 E57.45916
G1 X113.022 Y93.496 E57.52792
G1 X106.504 Y86.978 E58.24201
G1 X107.391 Y86.978 E58.31077
G1 X113.022 Y92.609 E58.92762
G1 X113.022 Y91.721 E58.99638
G1 X108.279 Y86.978 E59.51599
G1 X109.166 Y86.978 E59.58475
G1 X113.022 Y90.834 E60.00713
G1 X113.022 Y89.946 E60.07589
G1 X110.054 Y86.978 E60.40103
G1 X110.942 Y86.978 E60.46978
G1 X113.022 Y89.058 E60.69769
G1 X113.022 Y88.171 E60.76644
G1 X111.829 Y86.978 E60.89711
G1 X112.717 Y86.978 E60.96587
G1 X113.022 Y87.283 E60.99930
G1 X107.303 Y90.440 F3600.000
G1 X103.841 Y86.978 E61.37856 F1800.000
G1 X105.141 Y89.165 F3600.000
G1 X102.954 Y86.978 E61.61817 F1800.000
G1 X102.066 Y86.978 E61.68692
G1 X103.641 Y88.553 E61.85942
G1 X102.514 Y88.313 E61.94869
G1 X101.179 Y86.978 E62.09494
G1 X101.389 Y88.076 E62.18157
G1 X100.291 Y86.978 E62.30188
G1 X99.404 Y86.978 E62.37063
G1 X100.502 Y88.076 E62.49095
G1 X99.614 Y88.076 E62.55970
G1 X98.516 Y86.978 E62.68001
G1 X97.629 Y86.978 E62.74877
G1 X98.751 Y88.101 E62.87175
G1 X98.019 Y88.256 E62.92972
G1 X96.741 Y86.978 E63.06974
G1 X95.854 Y86.978 E63.13849
G1 X97.287 Y88.412 E63.29556
G1 X96.555 Y88.568 E63.35353
G1 X94.966 Y86.978 E63.52764
G1 X94.079 Y86.978 E63.59640
G1 X95.914 Y88.814 E63.79749
G1 X95.300 Y89.087 E63.84957
G1 X93.191 Y86.978 E64.08061
G1 X92.303 Y86.978 E64.14937
G1 X94.686 Y89.361 E64.41037
G1 X94.072 Y89.634 E64.46245
G1 X91.416 Y86.978 E64.75340
G1 X90.528 Y86.978 E64.82216
G1 X93.558 Y90.007 E65.15403
G1 X93.043 Y90.381 E65.20326
G1 X89.641 Y86.978 E65.57604
G1 X88.753 Y86.978 E65.64480
G1 X92.529 Y90.754 E66.05851
G1 X92.016 Y91.129 E66.10771
G1 X87.866 Y86.978 E66.56245
G1 X86.998 Y86.998 E66.62967
G1 X91.596 Y91.596 E67.13338
G1 X91.175 Y92.063 E67.18207
G1 X86.978 Y87.866 E67.64190
G1 X86.978 Y88.753 E67.71066
G1 X90.755 Y92.530 E68.12442
G1 X90.334 Y92.997 E68.17310
G1 X86.978 Y89.641 E68.54079
G1 X86.978 Y90.528 E68.60955
G1 X90.007 Y93.558 E68.94142
G1 X89.683 Y94.120 E68.99175
G1 X86.978 Y91.416 E69.28803
G1 X86.978 Y92.303 E69.35679
G1 X89.358 Y94.683 E69.61748
G1 X89.041 Y95.254 E69.66805
G1 X86.978 Y93.191 E69.89406
G1 X86.978 Y94.079 E69.96282
G1 X88.824 Y95.924 E70.16498
G1 X88.606 Y96.594 E70.21955
G1 X86.978 Y94.966 E70.39786
G1 X86.978 Y95.854 E70.46662
G1 X88.388 Y97.263 E70.62109
G1 X88.234 Y97.997 E70.67917
G1 X86.978 Y96.741 E70.81679
G1 X86.978 Y97.629 E70.88555
G1 X88.150 Y98.800 E71.01392
G1 X88.066 Y99.604 E71.07648
G1 X86.978 Y98.516 E71.19561
G1 X86.978 Y99.404 E71.26437
G1 X88.046 Y100.471 E71.38130
G1 X88.150 Y101.463 E71.45856
G1 X86.978 Y100.291 E71.58691
G1 X86.978 Y101.179 E71.65567
G1 X88.254 Y102.455 E71.79544
G1 X88.617 Y103.705 E71.89627
G1 X86.978 Y102.066 E72.07577
G1 X86.978 Y102.954 E72.14453
G1 X89.044 Y105.019 E72.37082
G1 X86.978 Y105.616 F3600.000
G1 X94.384 Y113.022 E73.18214 F1800.000
G1 X93.496 Y113.022 E73.25090
G1 X86.978 Y106.504 E73.96499
G1 X86.978 Y107.391 E74.03374
G1 X92.609 Y113.022 E74.65059
G1 X91.721 Y113.022 E74.71935
G1 X86.978 Y108.279 E75.23896
G1 X86.978 Y109.166 E75.30772
G1 X90.834 Y113.022 E75.73009
G1 X89.946 Y113.022 E75.79885
G1 X86.978 Y110.054 E76.12399
G1 X86.978 Y110.942 E76.19275
G1 X89.058 Y113.022 E76.42065
G1 X88.171 Y113.022 E76.48940
G1 X86.978 Y111.829 E76.62007
G1 X86.978 Y112.717 E76.68882
G1 X87.283 Y113.022 E76.72225
G1 X90.230 Y107.093 F3600.000
G1 X86.978 Y103.841 E77.07850 F1800.000
G1 X86.978 Y104.729 E77.14726
G1 X95.271 Y113.022 E78.05582
G1 Z0.650 F3600.000
G1 X107.405 Y108.127 F3600.000
G1 X107.362 Y108.176 E78.05873 F3600.000
G1 X105.501 Y109.528 E78.16066
G1 X103.400 Y110.463 E78.26260
G1 X101.150 Y110.941 E78.36454
G1 X98.850 Y110.941 E78.46648
G1 X96.600 Y110.463 E78.56841
G1 X94.499 Y109.528 E78.67035
G1 X92.638 Y108.176 E78.77229
G1 X91.100 Y106.467 E78.87423
G1 X89.950 Y104.475 E78.97616
G1 X89.239 Y102.287 E79.07810
G1 X88.998 Y100.000 E79.18004
G1 X89.239 Y97.713 E79.28197
G1 X89.950 Y95.525 E79.38391
G1 X91.100 Y93.533 E79.48585
G1 X92.638 Y91.824 E79.58779
G1 X94.499 Y90.472 E79.68972
G1 X96.600 Y89.537 E79.79166
G1 X98.850 Y89.059 E79.89360
G1 X101.150 Y89.059 E79.99554 F3600.000
G1 X103.400 Y89.537 E80.09747
G1 X105.501 Y90.472 E80.19941
G1 X107.362 Y91.824 E80.30135
G1 X108.900 Y93.533 E80.40329
G1 X110.050 Y95.525 E80.50522
G1 X110.761 Y97.713 E80.60716
G1 X111.002 Y100.000 E80.70910
G1 X110.761 Y102.287 E80.81104
G1 X110.050 Y104.475 E80.91297
G1 X108.900 Y106.467 E81.01491
G1 X107.446 Y108.082 E81.11128
G1 X107.094 Y107.847 F3600.000
G1 X105.290 Y109.163 E81.21025 F3600.000
G1 X103.270 Y110.063 E81.30829
G1 X101.106 Y110.522 E81.40632
G1 X98.894 Y110.522 E81.50436
G1 X96.730 Y110.063 E81.60239
G1 X94.710 Y109.163 E81.70042
G1 X92.920 Y107.863 E81.79846
G1 X91.440 Y106.219 E81.89649
G1 X90.334 Y104.303 E81.99453
G1 X89.651 Y102.200 E82.09256
G1 X89.420 Y100.000 E82.19060
G1 X89.651 Y97.800 E82.28863
G1 X90.334 Y95.697 E82.38667
G1 X91.440 Y93.781 E82.48470
G1 X92.920 Y92.137 E82.58274
G1 X94.710 Y90.837 E82.68077
G1 X96.730 Y89.937 E82.77881
G1 X98.894 Y89.478 E82.87684
G1 X101.106 Y89.478 E82.97488 F3600.000
G1 X103.270 Y89.937 E83.07291
G1 X105.290 Y90.837 E83.17095
G1 X107.080 Y92.137 E83.26898
G1 X108.560 Y93.781 E83.36702
G1 X109.666 Y95.697 E83.46505
G1 X110.349 Y97.800 E83.56309
G1 X110.580 Y100.000 E83.66112
G1 X110.349 Y102.200 E83.75916
G1 X109.666 Y104.303 E83.85719
G1 X108.560 Y106.219 E83.95523
G1 X107.134 Y107.802 E84.04964
G1 X106.826 Y107.581 F3600.000
G1 X105.101 Y108.834 E84.12538 F1800.000
G1 X103.152 Y109.702 E84.20111
G1 X101.066 Y110.145 E84.27684
G1 X98.934 Y110.145 E84.35257
G1 X96.848 Y109.702 E84.42831
G1 X94.899 Y108.834 E84.50404
G1 X93.174 Y107.581 E84.57977
G1 X91.747 Y105.996 E84.65550
G1 X90.681 Y104.149 E84.73124
G1 X90.022 Y102.121 E84.80697
G1 X89.799 Y100.000 E84.88270
G1 X90.022 Y97.879 E84.95843
G1 X90.681 Y95.851 E85.03417
G1 X91.747 Y94.004 E85.10990
G1 X93.174 Y92.419 E85.18563
G1 X94.899 Y91.166 E85.26136
G1 X96.848 Y90.298 E85.33710
G1 X98.934 Y89.855 E85.41283
G1 X101.066 Y89.855 E85.48856 F1800.000
G1 X103.152 Y90.298 E85.56429
G1 X105.101 Y91.166 E85.64003
G1 X106.826 Y92.419 E85.71576
G1 X108.253 Y94.004 E85.79149
G1 X109.319 Y95.851 E85.86722
G1 X109.978 Y97.879 E85.94296
G1 X110.201 Y100.000 E86.01869
G1 X109.978 Y102.121 E86.09442
G1 X109.319 Y104.149 E86.17015
G1 X108.253 Y105.996 E86.24589
G1 X106.866 Y107.536 E86.31949
G1 X106.895 Y107.975 F3600.000
G1 X114.004 Y114.004 F3600.000
G1 X85.996 Y114.004 E87.56083 F3600.000
G1 X85.996 Y85.996 E88.80217
G1 X114.004 Y85.996 E90.04351
G1 X114.004 Y113.944 E91.28219
G1 X114.423 Y114.423 F3600.000
G1 X85.577 Y114.423 E92.56067 F3600.000
G1 X85.577 Y85.577 E93.83914
G1 X114.423 Y85.577 E95.11761
G1 X114.423 Y114.363 E96.39342
G1 X114.800 Y114.800 F3600.000
G1 X85.200 Y114.800 E97.44457 F1800.000
G1 X85.200 Y85.200 E98.49572
G1 X114.800 Y85.200 E99.54686
G1 X114.800 Y114.740 E100.59588
G1 X114.454 Y114.600 F3600.000
G1 X113.539 Y113.757 F3600.000
G1 X113.757 Y113.539 E100.60955 F1200.000
G1 X113.757 Y112.946 E100.63589
G1 X112.946 Y113.757 E100.68682
G1 X112.352 Y113.757 E100.71316
G1 X113.757 Y112.352 E100.80134
G1 X113.757 Y111.759 E100.82769
G1 X111.759 Y113.757 E100.95313
G1 X111.165 Y113.757 E100.97947
G1 X113.757 Y111.165 E101.14216
G1 X113.757 Y110.572 E101.16851
G1 X110.572 Y113.757 E101.36846
G1 X109.979 Y113.757 E101.39480
G1 X113.757 Y109.979 E101.63201
G1 X113.757 Y109.385 E101.65835
G1 X109.385 Y113.757 E101.93282
G1 X108.792 Y113.757 E101.95916
G1 X113.757 Y108.792 E102.27088
G1 X113.757 Y108.199 E102.29722
G1 X108.199 Y113.757 E102.64620
G1 X107.605 Y113.757 E102.67254
G1 X113.757 Y107.605 E103.05878
G1 X113.757 Y107.012 E103.08512
G1 X107.012 Y113.757 E103.50861
G1 X106.418 Y113.757 E103.53495
G1 X113.757 Y106.418 E103.99570
G1 X113.757 Y105.825 E104.02204
G1 X105.825 Y113.757 E104.52004
G1 X105.232 Y113.757 E104.54638
G1 X113.757 Y105.232 E105.08164
G1 X113.757 Y104.638 E105.10798
G1 X104.638 Y113.757 E105.68050
G1 X104.045 Y113.757 E105.70684
