; generated by Slic3r 1.2.9 on 2016-10-09 at 14:45:58

; external perimeters extrusion width = 0.40mm
; perimeters extrusion width = 0.68mm
; infill extrusion width = 1.28mm
; solid infill extrusion width = 0.68mm
; top infill extrusion width = 0.68mm

M104 S235 ; set temperature
G28 ; home all axes
;G1 Z5 F5000 ; lift nozzle

M109 S235 ; wait for temperature to be reached
G21 ; set units to millimeters
G90 ; use absolute coordinates
M82 ; use absolute distances for extrusion
G92 E0
G1 Z0.350 F3600.000
G1 E-2.00000 F2400.00000
G92 E0
G1 X79.915 Y80.753 F3600.000
G1 E2.00000 F2400.00000
G1 X81.668 Y79.274 E2.20854 F1800.000
G1 X83.820 Y78.481 E2.41708
G1 X85.000 Y78.375 E2.52479
G1 X115.000 Y78.375 E5.25268
G1 X117.259 Y78.772 E5.46122
G1 X119.247 Y79.915 E5.66977 F1800.000
G1 X120.726 Y81.668 E5.87831
G1 X121.519 Y83.820 E6.08685
G1 X121.625 Y85.000 E6.19456
G1 X121.625 Y115.000 E8.92245
G1 X121.228 Y117.259 E9.13099
G1 X120.085 Y119.247 E9.33953
G1 X118.332 Y120.726 E9.54807
G1 X116.180 Y121.519 E9.75662
G1 X115.000 Y121.625 E9.86433
G1 X85.000 Y121.625 E12.59221
G1 X82.741 Y121.228 E12.80076
G1 X80.753 Y120.085 E13.00930
G1 X79.274 Y118.332 E13.21784
G1 X78.481 Y116.180 E13.42638
G1 X78.375 Y115.000 E13.53409
G1 X78.375 Y85.000 E16.26198
G1 X78.772 Y82.741 E16.47052
G1 X79.886 Y80.805 E16.67361
G1 E14.67361 F2400.00000
G92 E0
G1 X107.347 Y108.160 F3600.000
G1 E2.00000 F2400.00000
G1 X105.490 Y109.509 E2.20873 F1800.000
G1 X103.393 Y110.443 E2.41746
G1 X101.148 Y110.920 E2.62619
G1 X98.852 Y110.920 E2.83492
G1 X96.607 Y110.443 E3.04364
G1 X94.510 Y109.509 E3.25237
G1 X92.653 Y108.160 E3.46110
G1 X91.117 Y106.454 E3.66983
G1 X89.969 Y104.466 E3.87856
G1 X89.260 Y102.283 E4.08729
G1 X89.020 Y100.000 E4.29602
G1 X89.260 Y97.717 E4.50475
G1 X89.969 Y95.534 E4.71347
G1 X91.117 Y93.546 E4.92220
G1 X92.653 Y91.840 E5.13093
G1 X94.510 Y90.491 E5.33966
G1 X96.607 Y89.557 E5.54839
G1 X98.852 Y89.080 E5.75712
G1 X101.148 Y89.080 E5.96585 F1800.000
G1 X103.393 Y89.557 E6.17458
G1 X105.490 Y90.491 E6.38330
G1 X107.347 Y91.840 E6.59203
G1 X108.883 Y93.546 E6.80076
G1 X110.031 Y95.534 E7.00949
G1 X110.740 Y97.717 E7.21822
G1 X110.980 Y100.000 E7.42695
G1 X110.740 Y102.283 E7.63568
G1 X110.031 Y104.466 E7.84441
G1 X108.883 Y106.454 E8.05313
G1 X107.387 Y108.115 E8.25641
G1 X106.927 Y107.693 F3600.000
G1 X105.176 Y108.965 E8.45319 F1800.000
G1 X103.199 Y109.845 E8.64998
G1 X101.082 Y110.295 E8.84676
G1 X98.918 Y110.295 E9.04355
G1 X96.801 Y109.845 E9.24033
G1 X94.824 Y108.965 E9.43712
G1 X93.073 Y107.693 E9.63390
G1 X91.625 Y106.085 E9.83068
G1 X90.543 Y104.211 E10.02747
G1 X89.874 Y102.152 E10.22425
G1 X89.648 Y100.000 E10.42104
G1 X89.874 Y97.848 E10.61782
G1 X90.543 Y95.789 E10.81461
G1 X91.625 Y93.915 E11.01139
G1 X93.073 Y92.307 E11.20818
G1 X94.824 Y91.035 E11.40496
G1 X96.801 Y90.155 E11.60175
G1 X98.918 Y89.705 E11.79853
G1 X101.082 Y89.705 E11.99531 F1800.000
G1 X103.199 Y90.155 E12.19210
G1 X105.176 Y91.035 E12.38888
G1 X106.927 Y92.307 E12.58567
G1 X108.375 Y93.915 E12.78245
G1 X109.457 Y95.789 E12.97924
G1 X110.126 Y97.848 E13.17602
G1 X110.352 Y100.000 E13.37281
G1 X110.126 Y102.152 E13.56959
G1 X109.457 Y104.211 E13.76638
G1 X108.375 Y106.085 E13.96316
G1 X106.967 Y107.648 E14.15449
G1 X106.996 Y108.087 F3600.000
G1 X114.025 Y114.025 F3600.000
G1 X85.975 Y114.025 E16.70508 F1800.000
G1 X85.975 Y85.975 E19.25568
G1 X114.025 Y85.975 E21.80627
G1 X114.025 Y113.965 E24.35141
G1 X114.650 Y114.650 F3600.000
G1 X85.350 Y114.650 E27.01565 F1800.000
G1 X85.350 Y85.350 E29.67989
G1 X114.650 Y85.350 E32.34412
G1 X114.650 Y114.590 E35.00290
G1 X114.304 Y114.450 F3600.000
G1 X113.647 Y98.162 F3600.000
G1 X109.945 Y94.461 E35.47945 F1800.000
G1 X110.645 Y96.045 F3600.000
G1 X113.647 Y99.047 E35.86592 F1800.000
G1 X113.647 Y99.931 E35.94648
G1 X111.071 Y97.356 E36.27812
G1 X111.205 Y98.374 E36.37167
G1 X113.647 Y100.816 E36.68607
G1 X113.647 Y101.701 E36.76664
G1 X111.309 Y99.363 E37.06766
G1 X111.320 Y100.260 E37.14929
G1 X113.647 Y102.586 E37.44880
G1 X113.647 Y103.471 E37.52936
G1 X111.236 Y101.060 E37.83970
G1 X111.152 Y101.861 E37.91300
G1 X113.647 Y104.356 E38.23418
G1 X113.647 Y105.240 E38.31474
G1 X111.001 Y102.595 E38.65540
G1 X110.784 Y103.263 E38.71933
G1 X113.647 Y106.125 E39.08793
G1 X113.647 Y107.010 E39.16849
G1 X110.567 Y103.930 E39.56503
G1 X110.341 Y104.589 E39.62845
G1 X113.647 Y107.895 E40.05407
G1 X113.647 Y108.780 E40.13464
G1 X110.017 Y105.150 E40.60196
G1 X109.693 Y105.711 E40.66094
G1 X113.647 Y109.665 E41.16997
G1 X113.647 Y110.550 E41.25053
G1 X109.369 Y106.272 E41.80126
G1 X109.010 Y106.798 E41.85922
G1 X113.647 Y111.434 E42.45624
G1 X113.647 Y112.319 E42.53680
G1 X108.590 Y107.263 E43.18780
G1 X108.171 Y107.729 E43.24485
G1 X113.647 Y113.204 E43.94983
G1 X113.204 Y113.647 E44.00680
G1 X107.752 Y108.194 E44.70879
G1 X107.283 Y108.610 E44.76586
G1 X112.319 Y113.647 E45.41437
G1 X111.434 Y113.647 E45.49494
G1 X106.770 Y108.982 E46.09550
G1 X106.258 Y109.355 E46.15318
G1 X110.550 Y113.647 E46.70580
G1 X109.665 Y113.647 E46.78637
G1 X105.745 Y109.727 E47.29105
G1 X105.158 Y110.025 E47.35097
G1 X108.780 Y113.647 E47.81729
G1 X107.895 Y113.647 E47.89785
G1 X104.546 Y110.297 E48.32906
G1 X103.934 Y110.570 E48.39008
G1 X107.010 Y113.647 E48.78620
G1 X106.125 Y113.647 E48.86676
G1 X103.303 Y110.824 E49.23019
G1 X102.573 Y110.979 E49.29812
G1 X105.240 Y113.647 E49.64158
G1 X104.356 Y113.647 E49.72214
G1 X101.843 Y111.134 E50.04564
G1 X101.113 Y111.289 E50.11356
G1 X103.471 Y113.647 E50.41708
G1 X102.586 Y113.647 E50.49764
G1 X100.238 Y111.299 E50.79995
G1 X99.353 Y111.299 E50.88051
G1 X101.701 Y113.647 E51.18281
G1 X100.816 Y113.647 E51.26337
G1 X98.415 Y111.245 E51.57254
G1 X97.291 Y111.006 E51.67714
G1 X99.931 Y113.647 E52.01706
G1 X99.046 Y113.647 E52.09763
G1 X96.106 Y110.706 E52.47630
G1 X94.511 Y109.995 F3600.000
G1 X98.162 Y113.647 E52.94640 F1800.000
G1 X97.277 Y113.647 E53.02696
G1 X86.353 Y102.723 E54.43342
G1 X86.353 Y101.838 E54.51398
G1 X90.055 Y105.540 E54.99053
G1 X89.355 Y103.955 F3600.000
G1 X86.353 Y100.954 E55.37701 F1800.000
G1 X86.353 Y100.069 E55.45757
G1 X88.929 Y102.644 E55.78921
G1 X88.795 Y101.626 E55.88276
G1 X86.353 Y99.184 E56.19716
G1 X86.353 Y98.299 E56.27772
G1 X88.691 Y100.637 E56.57874
G1 X88.680 Y99.740 E56.66038
G1 X86.353 Y97.414 E56.95989
G1 X86.353 Y96.529 E57.04045
G1 X88.764 Y98.940 E57.35079
G1 X88.848 Y98.139 E57.42409
G1 X86.353 Y95.644 E57.74527
G1 X86.353 Y94.760 E57.82583
G1 X88.999 Y97.405 E58.16648
G1 X89.216 Y96.737 E58.23042
G1 X86.353 Y93.875 E58.59901
G1 X86.353 Y92.990 E58.67957
G1 X89.433 Y96.070 E59.07611
G1 X89.659 Y95.411 E59.13953
G1 X86.353 Y92.105 E59.56515
G1 X86.353 Y91.220 E59.64571
G1 X89.983 Y94.850 E60.11304
G1 X90.307 Y94.289 E60.17201
G1 X86.353 Y90.335 E60.68104
G1 X86.353 Y89.450 E60.76160
G1 X90.631 Y93.728 E61.31233
G1 X90.990 Y93.202 E61.37029
G1 X86.353 Y88.566 E61.96731
G1 X86.353 Y87.681 E62.04787
G1 X91.409 Y92.737 E62.69887
G1 X91.829 Y92.271 E62.75592
G1 X86.353 Y86.796 E63.46090
G1 X86.796 Y86.353 E63.51786
G1 X92.248 Y91.806 E64.21986
G1 X92.717 Y91.390 E64.27693
G1 X87.681 Y86.353 E64.92544
G1 X88.566 Y86.353 E65.00600
G1 X93.230 Y91.018 E65.60657
G1 X93.742 Y90.645 E65.66425
G1 X89.450 Y86.353 E66.21688
G1 X90.335 Y86.353 E66.29744
G1 X94.255 Y90.273 E66.80212
G1 X94.842 Y89.975 E66.86205
G1 X91.220 Y86.353 E67.32836
G1 X92.105 Y86.353 E67.40892
G1 X95.454 Y89.703 E67.84014
G1 X96.066 Y89.430 E67.90116
G1 X92.990 Y86.353 E68.29727
G1 X93.875 Y86.353 E68.37783
G1 X96.697 Y89.176 E68.74127
G1 X97.427 Y89.021 E68.80919
G1 X94.760 Y86.353 E69.15266
G1 X95.644 Y86.353 E69.23322
G1 X98.157 Y88.866 E69.55672
G1 X98.887 Y88.711 E69.62464
G1 X96.529 Y86.353 E69.92816
G1 X97.414 Y86.353 E70.00872
G1 X99.762 Y88.701 E70.31102
G1 X100.647 Y88.701 E70.39159
G1 X98.299 Y86.353 E70.69389
G1 X99.184 Y86.353 E70.77445
G1 X101.585 Y88.755 E71.08362
G1 X102.709 Y88.994 E71.18821
G1 X100.069 Y86.353 E71.52814
G1 X100.953 Y86.353 E71.60870
G1 X103.894 Y89.294 E71.98737
G1 X105.489 Y90.005 F3600.000
G1 X101.838 Y86.353 E72.45747 F1800.000
G1 X102.723 Y86.353 E72.53803
G1 X113.647 Y97.277 E73.94449
G1 X113.647 Y96.392 E74.02506
G1 X103.608 Y86.353 E75.31758
G1 X104.493 Y86.353 E75.39815
G1 X113.647 Y95.507 E76.57674
G1 X113.647 Y94.622 E76.65731
G1 X105.378 Y86.353 E77.72197
G1 X106.263 Y86.353 E77.80253
G1 X113.647 Y93.737 E78.75327
G1 X113.647 Y92.853 E78.83383
G1 X107.147 Y86.353 E79.67064
G1 X108.032 Y86.353 E79.75120
G1 X113.647 Y91.968 E80.47407
G1 X113.647 Y91.083 E80.55463
G1 X108.917 Y86.353 E81.16358
G1 X109.802 Y86.353 E81.24414
G1 X113.647 Y90.198 E81.73915
G1 X113.647 Y89.313 E81.81971
G1 X110.687 Y86.353 E82.20079
G1 X111.572 Y86.353 E82.28135
G1 X113.647 Y88.428 E82.54850
G1 X113.647 Y87.543 E82.62906
G1 X112.457 Y86.353 E82.78228
G1 X113.341 Y86.353 E82.86284
G1 X113.647 Y86.659 E82.90213
G1 E80.90213 F2400.00000
G92 E0
G1 X96.392 Y113.647 F3600.000
G1 E2.00000 F2400.00000
G1 X86.353 Y103.608 E3.29253 F1800.000
G1 X86.353 Y104.493 E3.37309
G1 X95.507 Y113.647 E4.55168
G1 X94.622 Y113.647 E4.63224
G1 X86.353 Y105.378 E5.69690
G1 X86.353 Y106.263 E5.77747
G1 X93.737 Y113.647 E6.72820
G1 X92.853 Y113.647 E6.80876
G1 X86.353 Y107.147 E7.64556
G1 X86.353 Y108.032 E7.72612
G1 X91.968 Y113.647 E8.44899
G1 X91.083 Y113.647 E8.52955
G1 X86.353 Y108.917 E9.13849
G1 X86.353 Y109.802 E9.21905
G1 X90.198 Y113.647 E9.71406
G1 X89.313 Y113.647 E9.79462
G1 X86.353 Y110.687 E10.17570
G1 X86.353 Y111.572 E10.25626
G1 X88.428 Y113.647 E10.52340
G1 X87.543 Y113.647 E10.60396
G1 X86.353 Y112.457 E10.75718
G1 X86.353 Y113.341 E10.83774
G1 X86.659 Y113.647 E10.87702
G1 Z0.450 F3600.000
G1 E8.87702 F2400.00000
G92 E0
G1 X107.199 Y107.941 F3600.000
G1 E2.00000 F2400.00000
G1 X105.361 Y109.286 E2.06235 F3600.000
G1 X103.313 Y110.198 E2.12372
G1 X101.121 Y110.664 E2.18510
G1 X98.879 Y110.664 E2.24647
G1 X96.687 Y110.198 E2.30784
G1 X94.639 Y109.286 E2.36921
G1 X92.825 Y107.968 E2.43059
G1 X91.325 Y106.303 E2.49196
G1 X90.205 Y104.361 E2.55333
G1 X89.512 Y102.229 E2.61471
G1 X89.278 Y100.000 E2.67608
G1 X89.512 Y97.771 E2.73745
G1 X90.205 Y95.639 E2.79882
G1 X91.325 Y93.697 E2.86020
G1 X92.825 Y92.032 E2.92157
G1 X94.639 Y90.714 E2.98294
G1 X96.687 Y89.802 E3.04432
G1 X98.879 Y89.336 E3.10569
G1 X101.121 Y89.336 E3.16706 F3600.000
G1 X103.313 Y89.802 E3.22843
G1 X105.361 Y90.714 E3.28981
G1 X107.175 Y92.032 E3.35118
G1 X108.675 Y93.697 E3.41255
G1 X109.795 Y95.639 E3.47393
G1 X110.488 Y97.771 E3.53530
G1 X110.722 Y100.000 E3.59667
G1 X110.488 Y102.229 E3.65805
G1 X109.795 Y104.361 E3.71942
G1 X108.675 Y106.303 E3.78079
G1 X107.239 Y107.897 E3.83952
G1 X106.826 Y107.581 F3600.000
G1 X105.101 Y108.834 E3.87309 F1800.000
G1 X103.152 Y109.702 E3.90665
G1 X101.066 Y110.145 E3.94021
G1 X98.934 Y110.145 E3.97377
G1 X96.848 Y109.702 E4.00734
G1 X94.899 Y108.834 E4.04090
G1 X93.174 Y107.581 E4.07446
G1 X91.747 Y105.996 E4.10802
G1 X90.681 Y104.149 E4.14159
G1 X90.022 Y102.121 E4.17515
G1 X89.799 Y100.000 E4.20871
G1 X90.022 Y97.879 E4.24228
G1 X90.681 Y95.851 E4.27584
G1 X91.747 Y94.004 E4.30940
G1 X93.174 Y92.419 E4.34296
G1 X94.899 Y91.166 E4.37653
G1 X96.848 Y90.298 E4.41009
G1 X98.934 Y89.855 E4.44365
G1 X101.066 Y89.855 E4.47721 F1800.000
G1 X103.152 Y90.298 E4.51078
G1 X105.101 Y91.166 E4.54434
G1 X106.826 Y92.419 E4.57790
G1 X108.253 Y94.004 E4.61147
G1 X109.319 Y95.851 E4.64503
G1 X109.978 Y97.879 E4.67859
G1 X110.201 Y100.000 E4.71215
G1 X109.978 Y102.121 E4.74572
G1 X109.319 Y104.149 E4.77928
G1 X108.253 Y105.996 E4.81284
G1 X106.866 Y107.536 E4.84546
G1 X106.895 Y107.975 F3600.000
G1 E2.84546 F2400.00000
G92 E0
G1 X114.281 Y114.281 F3600.000
G1 E2.00000 F2400.00000
G1 X85.719 Y114.281 E2.78202 F3600.000
G1 X85.719 Y85.719 E3.56404
G1 X114.281 Y85.719 E4.34606
G1 X114.281 Y114.221 E5.12644
G1 X114.800 Y114.800 F3600.000
G1 X85.200 Y114.800 E5.59228 F1800.000
G1 X85.200 Y85.200 E6.05812
G1 X114.800 Y85.200 E6.52396
G1 X114.800 Y114.740 E6.98886
G1 X114.454 Y114.600 F3600.000
G1 X113.562 Y113.881 F3600.000
G1 X113.881 Y113.562 E7.00143 F1200.000
G1 X113.881 Y112.616 E7.02775
G1 X112.616 Y113.881 E7.07755
G1 X111.669 Y113.881 E7.10388
G1 X113.881 Y111.669 E7.19091
G1 X113.881 Y110.723 E7.21724
G1 X110.723 Y113.881 E7.34150
G1 X109.777 Y113.881 E7.36783
G1 X113.881 Y109.777 E7.52932
G1 X113.881 Y108.830 E7.55565
G1 X108.830 Y113.881 E7.75437
G1 X107.884 Y113.881 E7.78070
G1 X113.881 Y107.884 E8.01666
G1 X113.881 Y106.938 E8.04299
G1 X106.938 Y113.881 E8.31618
G1 X105.991 Y113.881 E8.34250
G1 X113.881 Y105.991 E8.65292
G1 X113.881 Y105.045 E8.67925
G1 X105.045 Y113.881 E9.02691
G1 X104.099 Y113.881 E9.05323
G1 X113.881 Y104.099 E9.43812
G1 X113.881 Y103.152 E9.46445
G1 X103.152 Y113.881 E9.88656
G1 X102.206 Y113.881 E9.91289
G1 X113.881 Y102.206 E10.37224
G1 X113.881 Y101.260 E10.39857
G1 X109.786 Y105.356 E10.55971
G1 X110.478 Y103.717 F3600.000
G1 X113.881 Y100.313 E10.69361 F1200.000
G1 X113.881 Y99.367 E10.71994
G1 X110.893 Y102.356 E10.83753
G1 X111.004 Y101.298 E10.86711
G1 X113.881 Y98.421 E10.98033
G1 X113.881 Y97.474 E11.00666
G1 X111.115 Y100.241 E11.11551
G1 X111.044 Y99.365 E11.13995
G1 X113.881 Y96.528 E11.25157
G1 X113.881 Y95.582 E11.27790
G1 X110.954 Y98.509 E11.39307
G1 X110.840 Y97.677 E11.41644
G1 X113.881 Y94.635 E11.53610
G1 X113.881 Y93.689 E11.56243
G1 X110.608 Y96.963 E11.69121
G1 X110.376 Y96.248 E11.71211
G1 X113.881 Y92.743 E11.85002
G1 X113.881 Y91.797 E11.87635
G1 X110.140 Y95.538 E12.02355
G1 X109.794 Y94.938 E12.04282
G1 X113.881 Y90.850 E12.20365
G1 X113.881 Y89.904 E12.22997
G1 X109.447 Y94.338 E12.40443
G1 X109.101 Y93.738 E12.42370
G1 X113.881 Y88.958 E12.61178
G1 X113.881 Y88.011 E12.63811
G1 X108.690 Y93.203 E12.84236
G1 X108.242 Y92.705 E12.86100
G1 X113.881 Y87.065 E13.08289
G1 X113.861 Y86.139 E13.10867
G1 X107.793 Y92.207 E13.34741
G1 X107.333 Y91.721 E13.36603
G1 X112.935 Y86.119 E13.58644
G1 X111.989 Y86.119 E13.61277
G1 X106.785 Y91.322 E13.81751
G1 X106.237 Y90.924 E13.83635
G1 X111.042 Y86.119 E14.02542
G1 X110.096 Y86.119 E14.05175
G1 X105.689 Y90.526 E14.22515
G1 X105.072 Y90.196 E14.24461
G1 X109.150 Y86.119 E14.40504
G1 X108.203 Y86.119 E14.43137
G1 X104.417 Y89.905 E14.58033
G1 X103.762 Y89.613 E14.60027
G1 X107.257 Y86.119 E14.73777
G1 X106.311 Y86.119 E14.76410
G1 X103.063 Y89.367 E14.89188
G1 X102.282 Y89.201 E14.91408
G1 X105.364 Y86.119 E15.03534
G1 X104.418 Y86.119 E15.06167
G1 X101.502 Y89.035 E15.17641
G1 X100.654 Y88.936 E15.20015
G1 X103.472 Y86.119 E15.31101
G1 X102.525 Y86.119 E15.33733
G1 X99.708 Y88.936 E15.44819
G1 X98.762 Y88.936 E15.47451
G1 X101.579 Y86.119 E15.58537
G1 X100.633 Y86.119 E15.61170
G1 X97.581 Y89.170 E15.73177
G1 X96.379 Y89.426 E15.76595
G1 X99.686 Y86.119 E15.89607
G1 X98.740 Y86.119 E15.92239
G1 X94.673 Y90.185 E16.08239
G1 E14.08239 F2400.00000
G92 E0
G1 X94.955 Y86.119 F3600.000
G1 E2.00000 F2400.00000
G1 X86.119 Y94.955 E2.34765 F1200.000
G1 X86.119 Y94.009 E2.37398
G1 X94.009 Y86.119 E2.68440
G1 X93.062 Y86.119 E2.71072
G1 X86.119 Y93.062 E2.98391
G1 X86.119 Y92.116 E3.01024
G1 X92.116 Y86.119 E3.24619
G1 X91.170 Y86.119 E3.27252
G1 X86.119 Y91.170 E3.47125
G1 X86.119 Y90.223 E3.49757
G1 X90.223 Y86.119 E3.65906
G1 X89.277 Y86.119 E3.68539
G1 X86.119 Y89.277 E3.80965
G1 X86.119 Y88.331 E3.83598
G1 X88.331 Y86.119 E3.92300
G1 X87.384 Y86.119 E3.94933
G1 X86.119 Y87.384 E3.99913
G1 X86.119 Y86.438 E4.02545
G1 X86.438 Y86.119 E4.03802
G1 E2.03802 F2400.00000
G92 E0
G1 X90.215 Y94.644 F3600.000
G1 E2.00000 F2400.00000
G1 X86.119 Y98.740 E2.16115 F1200.000
G1 X86.119 Y97.794 E2.18748
G1 X97.794 Y86.119 E2.64682
G1 X96.847 Y86.119 E2.67315
G1 X86.119 Y96.847 E3.09527
G1 X86.119 Y95.901 E3.12159
G1 X95.901 Y86.119 E3.50648
G1 E1.50648 F2400.00000
G92 E0
G1 X89.522 Y96.283 F3600.000
G1 E2.00000 F2400.00000
G1 X86.119 Y99.686 E2.13390 F1200.000
G1 X86.119 Y100.633 E2.16023
G1 X89.107 Y97.644 E2.27782
G1 X88.996 Y98.701 E2.30740
G1 X86.119 Y101.579 E2.42062
G1 X86.119 Y102.525 E2.44695
G1 X88.885 Y99.759 E2.55579
G1 X88.956 Y100.635 E2.58023
