; generated by Slic3r 1.2.9 on 2016-10-09 at 13:52:22

; external perimeters extrusion width = 0.40mm
; perimeters extrusion width = 0.68mm
; infill extrusion width = 1.28mm
; solid infill extrusion width = 0.68mm
; top infill extrusion width = 0.68mm

M104 S235 ; set temperature
G28 ; home all axes
;G1 Z5 F5000 ; lift nozzle

M109 S235 ; wait for temperature to be reached
G21 ; set units to millimeters
G90 ; use absolute coordinates
M82 ; use absolute distances for extrusion
G92 E0
G1 Z0.350 F3600.000
G1 E-2.00000 F2400.00000
G92 E0
G1 X82.415 Y83.253 F3600.000
G1 E2.00000 F2400.00000
G1 X84.168 Y81.774 E2.20854 F1800.000
G1 X86.320 Y80.981 E2.41708
G1 X87.500 Y80.875 E2.52479
G1 X112.500 Y80.875 E4.79803
G1 X114.759 Y81.272 E5.00658
G1 X116.747 Y82.415 E5.21512 F1800.000
G1 X118.226 Y84.168 E5.42366
G1 X119.019 Y86.320 E5.63220
G1 X119.125 Y87.500 E5.73991
G1 X119.125 Y112.500 E8.01315
G1 X118.728 Y114.759 E8.22169
G1 X117.585 Y116.747 E8.43024
G1 X115.832 Y118.226 E8.63878
G1 X113.680 Y119.019 E8.84732
G1 X112.500 Y119.125 E8.95503
G1 X87.500 Y119.125 E11.22827
G1 X85.241 Y118.728 E11.43681
G1 X83.253 Y117.585 E11.64535
G1 X81.774 Y115.832 E11.85390
G1 X80.981 Y113.680 E12.06244
G1 X80.875 Y112.500 E12.17015
G1 X80.875 Y87.500 E14.44339
G1 X81.272 Y85.241 E14.65193
G1 X82.386 Y83.305 E14.85502
G1 E12.85502 F2400.00000
G92 E0
G1 X107.347 Y108.160 F3600.000
G1 E2.00000 F2400.00000
G1 X105.490 Y109.509 E2.20873 F1800.000
G1 X103.393 Y110.443 E2.41746
G1 X101.148 Y110.920 E2.62619
G1 X98.852 Y110.920 E2.83492
G1 X96.607 Y110.443 E3.04364
G1 X94.510 Y109.509 E3.25237
G1 X92.653 Y108.160 E3.46110
G1 X91.117 Y106.454 E3.66983
G1 X89.969 Y104.466 E3.87856
G1 X89.260 Y102.283 E4.08729
G1 X89.020 Y100.000 E4.29602
G1 X89.260 Y97.717 E4.50475
G1 X89.969 Y95.534 E4.71347
G1 X91.117 Y93.546 E4.92220
G1 X92.653 Y91.840 E5.13093
G1 X94.510 Y90.491 E5.33966
G1 X96.607 Y89.557 E5.54839
G1 X98.852 Y89.080 E5.75712
G1 X101.148 Y89.080 E5.96585 F1800.000
G1 X103.393 Y89.557 E6.17458
G1 X105.490 Y90.491 E6.38330
G1 X107.347 Y91.840 E6.59203
G1 X108.883 Y93.546 E6.80076
G1 X110.031 Y95.534 E7.00949
G1 X110.740 Y97.717 E7.21822
G1 X110.980 Y100.000 E7.42695
G1 X110.740 Y102.283 E7.63568
G1 X110.031 Y104.466 E7.84441
G1 X108.883 Y106.454 E8.05313
G1 X107.387 Y108.115 E8.25641
G1 X106.927 Y107.693 F3600.000
G1 X105.176 Y108.965 E8.45319 F1800.000
G1 X103.199 Y109.845 E8.64998
G1 X101.082 Y110.295 E8.84676
G1 X98.918 Y110.295 E9.04355
G1 X96.801 Y109.845 E9.24033
G1 X94.824 Y108.965 E9.43712
G1 X93.073 Y107.693 E9.63390
G1 X91.625 Y106.085 E9.83068
G1 X90.543 Y104.211 E10.02747
G1 X89.874 Y102.152 E10.22425
G1 X89.648 Y100.000 E10.42104
G1 X89.874 Y97.848 E10.61782
G1 X90.543 Y95.789 E10.81461
G1 X91.625 Y93.915 E11.01139
G1 X93.073 Y92.307 E11.20818
G1 X94.824 Y91.035 E11.40496
G1 X96.801 Y90.155 E11.60175
G1 X98.918 Y89.705 E11.79853
G1 X101.082 Y89.705 E11.99531 F1800.000
G1 X103.199 Y90.155 E12.19210
G1 X105.176 Y91.035 E12.38888
G1 X106.927 Y92.307 E12.58567
G1 X108.375 Y93.915 E12.78245
G1 X109.457 Y95.789 E12.97924
G1 X110.126 Y97.848 E13.17602
G1 X110.352 Y100.000 E13.37281
G1 X110.126 Y102.152 E13.56959
G1 X109.457 Y104.211 E13.76638
G1 X108.375 Y106.085 E13.96316
G1 X106.967 Y107.648 E14.15449
G1 X106.996 Y108.087 F3600.000
G1 X111.525 Y111.525 F3600.000
G1 X88.475 Y111.525 E16.25044 F1800.000
G1 X88.475 Y88.475 E18.34638
G1 X111.525 Y88.475 E20.44233
G1 X111.525 Y111.465 E22.53282
G1 X112.150 Y112.150 F3600.000
G1 X87.850 Y112.150 E24.74241 F1800.000
G1 X87.850 Y87.850 E26.95200
G1 X112.150 Y87.850 E29.16159
G1 X112.150 Y112.090 E31.36572
G1 X111.804 Y111.950 F3600.000
G1 X111.147 Y105.137 F3600.000
G1 X110.837 Y104.828 E31.40769 F1800.000
G1 X110.094 Y105.017 E31.48134
G1 X111.147 Y106.070 E31.62425
G1 X111.147 Y107.003 E31.71379
G1 X109.752 Y105.609 E31.90305
G1 X109.411 Y106.200 E31.96860
G1 X111.147 Y107.936 E32.20422
G1 X111.147 Y108.869 E32.29376
G1 X109.041 Y106.763 E32.57960
G1 X108.599 Y107.254 E32.64301
G1 X111.147 Y109.802 E32.98885
G1 X111.147 Y110.735 E33.07839
G1 X108.157 Y107.745 E33.48423
G1 X107.715 Y108.236 E33.54764
G1 X110.626 Y111.147 E33.94277
G1 X109.693 Y111.147 E34.03231
G1 X107.209 Y108.663 E34.36944
G1 X106.669 Y109.056 E34.43354
G1 X108.760 Y111.147 E34.71738
G1 X107.827 Y111.147 E34.80692
G1 X106.129 Y109.448 E35.03746
G1 X105.583 Y109.836 E35.10168
G1 X106.894 Y111.147 E35.27963
G1 X105.961 Y111.147 E35.36917
G1 X104.938 Y110.123 E35.50811
G1 X104.717 Y110.835 E35.57969
G1 X105.028 Y111.147 E35.62192
G1 X104.295 Y110.817 F3600.000
G1 X103.590 Y110.967 E35.76083 F1800.000
G1 X103.063 Y111.025 E35.86305
G1 X103.063 Y111.025 F3600.000
G1 X101.453 Y111.194 E36.01027 F1800.000
G1 X98.547 Y111.194 F3600.000
G1 X96.937 Y111.025 E36.15750 F1800.000
G1 X96.937 Y111.025 F3600.000
G1 X96.410 Y110.967 E36.25971 F1800.000
G1 X95.705 Y110.817 E36.39863
G1 X95.396 Y110.568 F3600.000
G1 X95.074 Y110.247 E36.44417 F1800.000
G1 X95.001 Y111.147 E36.53464
G1 X88.853 Y104.999 E37.40563
G1 X88.853 Y105.973 E37.50319
G1 X94.027 Y111.147 E38.23622
G1 X93.053 Y111.147 E38.33377
G1 X88.853 Y106.947 E38.92885
G1 X88.853 Y107.920 E39.02640
G1 X92.080 Y111.147 E39.48351
G1 X91.106 Y111.147 E39.58106
G1 X88.853 Y108.894 E39.90021
G1 X88.853 Y109.868 E39.99777
G1 X90.132 Y111.147 E40.17896
G1 X89.159 Y111.147 E40.27651
G1 X88.853 Y110.841 E40.31974
G1 X89.195 Y104.417 F3600.000
G1 X88.964 Y102.959 E40.60437 F1800.000
G1 X88.964 Y102.959 F3600.000
G1 X88.870 Y102.357 E40.65976 F1800.000
G1 X88.807 Y101.158 E40.76896
G1 X88.807 Y98.842 F3600.000
G1 X88.870 Y97.643 E40.87816 F1800.000
G1 X88.964 Y97.041 E40.93356
G1 X88.964 Y97.041 F3600.000
G1 X89.195 Y95.583 E41.21818 F1800.000
G1 X89.163 Y95.172 F3600.000
G1 X88.853 Y94.863 E41.26015 F1800.000
G1 X88.853 Y93.930 E41.34969
G1 X89.906 Y94.983 E41.49260
G1 X90.248 Y94.391 E41.55815
G1 X88.853 Y92.997 E41.74741
G1 X88.853 Y92.064 E41.83696
G1 X90.589 Y93.800 E42.07257
G1 X90.959 Y93.237 E42.13722
G1 X88.853 Y91.131 E42.42306
G1 X88.853 Y90.198 E42.51261
G1 X91.401 Y92.746 E42.85845
G1 X91.843 Y92.255 E42.92185
G1 X88.853 Y89.265 E43.32769
G1 X89.374 Y88.853 E43.39144
G1 X92.285 Y91.764 E43.78657
G1 X92.791 Y91.337 E43.85011
G1 X90.307 Y88.853 E44.18723
G1 X91.240 Y88.853 E44.27678
G1 X93.331 Y90.944 E44.56061
G1 X93.871 Y90.552 E44.62472
G1 X92.173 Y88.853 E44.85526
G1 X93.106 Y88.853 E44.94480
G1 X94.417 Y90.164 E45.12275
G1 X95.062 Y89.877 E45.19057
G1 X94.039 Y88.853 E45.32951
G1 X94.972 Y88.853 E45.41905
G1 X95.283 Y89.165 E45.46128
G1 X95.705 Y89.183 F3600.000
G1 X96.410 Y89.033 E45.60020 F1800.000
G1 X96.937 Y88.975 E45.70241
G1 X96.937 Y88.975 F3600.000
G1 X98.547 Y88.806 E45.84964 F1800.000
G1 X101.453 Y88.806 F3600.000
G1 X103.063 Y88.975 E45.99686 F1800.000
G1 X103.063 Y88.975 F3600.000
G1 X103.590 Y89.033 E46.09908 F1800.000
G1 X104.295 Y89.183 E46.23799
G1 X104.925 Y89.753 F3600.000
G1 X104.604 Y89.432 E46.28353 F1800.000
G1 X104.999 Y88.853 E46.35373
G1 X111.147 Y95.001 E47.22472
G1 X111.147 Y94.027 E47.32227
G1 X105.973 Y88.853 E48.05531
G1 X106.947 Y88.853 E48.15286
G1 X111.147 Y93.053 E48.74793
G1 X111.147 Y92.080 E48.84549
G1 X107.920 Y88.853 E49.30260
G1 X108.894 Y88.853 E49.40015
G1 X111.147 Y91.106 E49.71930
G1 X111.147 Y90.132 E49.81686
G1 X109.868 Y88.853 E49.99805
G1 X110.841 Y88.853 E50.09560
G1 X111.147 Y89.159 E50.13883
G1 X110.805 Y95.583 F3600.000
G1 X111.036 Y97.041 E50.42346 F1800.000
G1 X111.036 Y97.041 F3600.000
G1 X111.130 Y97.643 E50.47885 F1800.000
G1 X111.193 Y98.842 E50.58805
G1 X111.193 Y101.158 F3600.000
G1 X111.130 Y102.357 E50.69725 F1800.000
G1 X111.036 Y102.959 E50.75265
G1 X111.036 Y102.959 F3600.000
G1 X110.805 Y104.417 E51.03728 F1800.000
G1 Z0.450 F3600.000
G1 X107.323 Y107.804 F3600.000
G1 X107.175 Y107.968 E51.04334 F3600.000
G1 X105.361 Y109.286 E51.10471
G1 X103.313 Y110.198 E51.16609
G1 X101.121 Y110.664 E51.22746
G1 X98.879 Y110.664 E51.28883
G1 X96.687 Y110.198 E51.35021
G1 X94.639 Y109.286 E51.41158
G1 X92.825 Y107.968 E51.47295
G1 X91.325 Y106.303 E51.53432
G1 X90.205 Y104.361 E51.59570
G1 X89.512 Y102.229 E51.65707
G1 X89.278 Y100.000 E51.71844
G1 X89.512 Y97.771 E51.77982
G1 X90.205 Y95.639 E51.84119
G1 X91.325 Y93.697 E51.90256
G1 X92.825 Y92.032 E51.96393
G1 X94.639 Y90.714 E52.02531
G1 X96.687 Y89.802 E52.08668
G1 X98.879 Y89.336 E52.14805
G1 X101.121 Y89.336 E52.20943 F3600.000
G1 X103.313 Y89.802 E52.27080
G1 X105.361 Y90.714 E52.33217
G1 X107.175 Y92.032 E52.39354
G1 X108.675 Y93.697 E52.45492
G1 X109.795 Y95.639 E52.51629
G1 X110.488 Y97.771 E52.57766
G1 X110.722 Y100.000 E52.63904
G1 X110.488 Y102.229 E52.70041
G1 X109.795 Y104.361 E52.76178
G1 X108.675 Y106.303 E52.82315
G1 X107.363 Y107.759 E52.87682
G1 X106.938 Y107.457 F3600.000
G1 X106.826 Y107.581 E52.87945 F1800.000
G1 X105.101 Y108.834 E52.91301
G1 X103.152 Y109.702 E52.94657
G1 X101.066 Y110.145 E52.98014
G1 X98.934 Y110.145 E53.01370
G1 X96.848 Y109.702 E53.04726
G1 X94.899 Y108.834 E53.08082
G1 X93.174 Y107.581 E53.11439
G1 X91.747 Y105.996 E53.14795
G1 X90.681 Y104.149 E53.18151
G1 X90.022 Y102.121 E53.21508
G1 X89.799 Y100.000 E53.24864
G1 X90.022 Y97.879 E53.28220
G1 X90.681 Y95.851 E53.31576
G1 X91.747 Y94.004 E53.34933
G1 X93.174 Y92.419 E53.38289
G1 X94.899 Y91.166 E53.41645
G1 X96.848 Y90.298 E53.45001
G1 X98.934 Y89.855 E53.48358
G1 X101.066 Y89.855 E53.51714 F1800.000
G1 X103.152 Y90.298 E53.55070
G1 X105.101 Y91.166 E53.58427
G1 X106.826 Y92.419 E53.61783
G1 X108.253 Y94.004 E53.65139
G1 X109.319 Y95.851 E53.68495
G1 X109.978 Y97.879 E53.71852
G1 X110.201 Y100.000 E53.75208
G1 X109.978 Y102.121 E53.78564
G1 X109.319 Y104.149 E53.81920
G1 X108.253 Y105.996 E53.85277
G1 X106.978 Y107.412 E53.88276
G1 X106.989 Y107.616 F3600.000
G1 X111.781 Y111.781 F3600.000
G1 X88.219 Y111.781 E54.52788 F3600.000
G1 X88.219 Y88.219 E55.17301
G1 X111.781 Y88.219 E55.81814
G1 X111.781 Y111.721 E56.46162
G1 X112.300 Y112.300 F3600.000
G1 X87.700 Y112.300 E56.84877 F1800.000
G1 X87.700 Y87.700 E57.23593
G1 X112.300 Y87.700 E57.62308
G1 X112.300 Y112.240 E58.00928
G1 X111.954 Y112.100 F3600.000
G1 X111.062 Y111.381 F3600.000
G1 X111.381 Y111.062 E58.02287 F1200.000
G1 X111.381 Y110.039 E58.05365
G1 X110.039 Y111.381 E58.11077
G1 X109.016 Y111.381 E58.14154
G1 X111.381 Y109.016 E58.24219
G1 X111.381 Y107.992 E58.27297
G1 X107.992 Y111.381 E58.41714
G1 X106.969 Y111.381 E58.44792
G1 X111.381 Y106.969 E58.63562
G1 X111.381 Y105.946 E58.66640
G1 X105.946 Y111.381 E58.89763
G1 X104.923 Y111.381 E58.92841
G1 X111.381 Y104.923 E59.20316
G1 X111.381 Y103.899 E59.23394
G1 X109.595 Y105.686 E59.30995
G1 X110.448 Y103.810 F3600.000
G1 X110.776 Y103.482 E59.32390 F1200.000
G1 X105.578 Y109.703 F3600.000
G1 X103.899 Y111.381 E59.39532 F1200.000
G1 X103.262 Y111.004 F3600.000
G1 X101.155 Y111.223 E59.51318 F1200.000
G1 X98.845 Y111.223 E59.64177
G1 X96.738 Y111.004 E59.75963
G1 X95.993 Y111.381 F3600.000
G1 X96.315 Y111.060 E59.77289 F1200.000
G1 X96.071 Y110.312 E59.79578
G1 X95.002 Y111.381 E59.83981
G1 X94.011 Y111.381 E59.86867
G1 X95.385 Y110.007 E59.92527
G1 X94.700 Y109.702 E59.94713
G1 X93.020 Y111.381 E60.01630
G1 X92.030 Y111.381 E60.04516
G1 X94.095 Y109.317 E60.13021
G1 X93.521 Y108.900 E60.15087
G1 X91.039 Y111.381 E60.25310
G1 X90.048 Y111.381 E60.28196
G1 X92.947 Y108.483 E60.40136
G1 X92.415 Y108.024 E60.42182
G1 X89.057 Y111.381 E60.56011
G1 X88.619 Y110.829 E60.58064
G1 X91.945 Y107.503 E60.71767
G1 X91.476 Y106.981 E60.73810
G1 X88.619 Y109.839 E60.85580
G1 X88.619 Y108.848 E60.88465
G1 X91.011 Y106.456 E60.98319
G1 X90.648 Y105.828 E61.00432
G1 X88.619 Y107.857 E61.08792
G1 X88.619 Y106.866 E61.11678
G1 X90.286 Y105.199 E61.18544
G1 X89.923 Y104.571 E61.20657
G1 X88.619 Y105.876 E61.26029
G1 X88.619 Y104.885 E61.28915
G1 X89.655 Y103.848 E61.33186
G1 X88.942 Y103.571 E61.35415
G1 X88.619 Y103.894 E61.36747
G1 X88.992 Y103.134 F3600.000
G1 X88.869 Y102.332 E61.41264 F1200.000
G1 X88.748 Y100.021 E61.54141
G1 X88.869 Y97.668 E61.67251
G1 X88.992 Y96.866 E61.71768
G1 X89.224 Y96.518 F3600.000
G1 X89.552 Y96.190 E61.73163 F1200.000
G1 X88.619 Y96.100 E61.75984
G1 X90.405 Y94.314 E61.83585
G1 X88.619 Y94.054 F3600.000
G1 X94.054 Y88.619 E62.06708 F1200.000
G1 X93.031 Y88.619 E62.09786
G1 X88.619 Y93.031 E62.28556
G1 X88.619 Y92.008 E62.31633
G1 X92.008 Y88.619 E62.46051
G1 X90.984 Y88.619 E62.49129
G1 X88.619 Y90.984 E62.59193
G1 X88.619 Y89.961 E62.62271
G1 X89.961 Y88.619 E62.67982
G1 X88.938 Y88.619 E62.71060
G1 X88.619 Y88.938 E62.72419
G1 X94.422 Y90.297 F3600.000
G1 X96.100 Y88.619 E62.79560 F1200.000
G1 X95.077 Y88.619 E62.82638
G1 X88.619 Y95.077 E63.10114
G1 X96.738 Y88.996 F3600.000
G1 X98.845 Y88.777 E63.21900 F1200.000
G1 X101.155 Y88.777 E63.34759
G1 X103.262 Y88.996 E63.46545
G1 X103.685 Y88.940 F3600.000
G1 X104.007 Y88.619 E63.47871 F1200.000
G1 X104.998 Y88.619 E63.50757
G1 X103.929 Y89.688 E63.55160
G1 X104.615 Y89.993 E63.57345
G1 X105.989 Y88.619 E63.63006
G1 X106.980 Y88.619 E63.65891
G1 X105.300 Y90.298 E63.72809
G1 X105.905 Y90.683 E63.74899
G1 X107.970 Y88.619 E63.83404
G1 X108.961 Y88.619 E63.86290
G1 X106.479 Y91.100 E63.96513
G1 X107.053 Y91.517 E63.98579
G1 X109.952 Y88.619 E64.10519
G1 X110.943 Y88.619 E64.13404
G1 X107.585 Y91.976 E64.27233
G1 X108.055 Y92.497 E64.29276
G1 X111.381 Y89.171 E64.42979
G1 X111.381 Y90.161 E64.45865
G1 X108.524 Y93.019 E64.57634
G1 X108.989 Y93.544 E64.59679
G1 X111.381 Y91.152 E64.69533
G1 X111.381 Y92.143 E64.72418
G1 X109.352 Y94.172 E64.80778
G1 X109.714 Y94.801 E64.82891
G1 X111.381 Y93.134 E64.89757
G1 X111.381 Y94.124 E64.92643
G1 X110.077 Y95.429 E64.98016
G1 X110.345 Y96.152 E65.00262
G1 X111.381 Y95.115 E65.04532
G1 X111.381 Y96.106 E65.07418
G1 X111.058 Y96.429 E65.08750
G1 X111.008 Y96.866 F3600.000
G1 X111.131 Y97.668 E65.13267 F1200.000
G1 X111.252 Y100.021 E65.26377
G1 X111.131 Y102.332 E65.39254
G1 X111.008 Y103.134 E65.43771
G1 Z0.550 F3600.000
G1 X107.316 Y107.812 F3600.000
G1 X107.175 Y107.968 E65.44347 F3600.000
G1 X105.361 Y109.286 E65.50484
G1 X103.313 Y110.198 E65.56622
G1 X101.121 Y110.664 E65.62759
G1 X98.879 Y110.664 E65.68896
G1 X96.687 Y110.198 E65.75033
G1 X94.639 Y109.286 E65.81171
G1 X92.825 Y107.968 E65.87308
G1 X91.325 Y106.303 E65.93445
G1 X90.205 Y104.361 E65.99583
G1 X89.512 Y102.229 E66.05720
G1 X89.278 Y100.000 E66.11857
G1 X89.512 Y97.771 E66.17994
G1 X90.205 Y95.639 E66.24132
G1 X91.325 Y93.697 E66.30269
G1 X92.825 Y92.032 E66.36406
G1 X94.639 Y90.714 E66.42544
G1 X96.687 Y89.802 E66.48681
G1 X98.879 Y89.336 E66.54818
G1 X101.121 Y89.336 E66.60956 F3600.000
G1 X103.313 Y89.802 E66.67093
G1 X105.361 Y90.714 E66.73230
G1 X107.175 Y92.032 E66.79367
G1 X108.675 Y93.697 E66.85505
G1 X109.795 Y95.639 E66.91642
G1 X110.488 Y97.771 E66.97779
G1 X110.722 Y100.000 E67.03917
G1 X110.488 Y102.229 E67.10054
G1 X109.795 Y104.361 E67.16191
G1 X108.675 Y106.303 E67.22328
G1 X107.356 Y107.767 E67.27725
G1 X106.930 Y107.465 F3600.000
G1 X106.826 Y107.581 E67.27971 F1800.000
G1 X105.101 Y108.834 E67.31327
G1 X103.152 Y109.702 E67.34683
G1 X101.066 Y110.145 E67.38040
G1 X98.934 Y110.145 E67.41396
G1 X96.848 Y109.702 E67.44752
G1 X94.899 Y108.834 E67.48108
G1 X93.174 Y107.581 E67.51465
G1 X91.747 Y105.996 E67.54821
G1 X90.681 Y104.149 E67.58177
G1 X90.022 Y102.121 E67.61533
G1 X89.799 Y100.000 E67.64890
G1 X90.022 Y97.879 E67.68246
G1 X90.681 Y95.851 E67.71602
G1 X91.747 Y94.004 E67.74959
G1 X93.174 Y92.419 E67.78315
G1 X94.899 Y91.166 E67.81671
G1 X96.848 Y90.298 E67.85027
G1 X98.934 Y89.855 E67.88384
G1 X101.066 Y89.855 E67.91740 F1800.000
G1 X103.152 Y90.298 E67.95096
G1 X105.101 Y91.166 E67.98452
G1 X106.826 Y92.419 E68.01809
G1 X108.253 Y94.004 E68.05165
G1 X109.319 Y95.851 E68.08521
G1 X109.978 Y97.879 E68.11878
G1 X110.201 Y100.000 E68.15234
G1 X109.978 Y102.121 E68.18590
G1 X109.319 Y104.149 E68.21946
G1 X108.253 Y105.996 E68.25303
G1 X106.970 Y107.420 E68.28319
G1 X106.978 Y107.613 F3600.000
G1 X111.781 Y111.781 F3600.000
G1 X88.219 Y111.781 E68.92832 F3600.000
G1 X88.219 Y88.219 E69.57344
G1 X111.781 Y88.219 E70.21857
G1 X111.781 Y111.721 E70.86206
