; generated by Slic3r 1.2.9 on 2016-10-09 at 17:05:19

; external perimeters extrusion width = 0.40mm
; perimeters extrusion width = 0.48mm
; infill extrusion width = 0.48mm
; solid infill extrusion width = 0.48mm
; top infill extrusion width = 0.48mm

M104 S235 ; set temperature
G28 ; home all axes
;G1 Z5 F5000 ; lift nozzle

M109 S235 ; wait for temperature to be reached
G21 ; set units to millimeters
G90 ; use absolute coordinates
M82 ; use absolute distances for extrusion
G92 E0
G1 Z0.350 F3600.000
G1 E-2.00000 F2400.00000
G92 E0
G1 X79.296 Y80.526 F3600.000
G1 E2.00000 F2400.00000
G1 X81.069 Y78.909 E2.18513 F900.000
G1 X83.273 Y77.959 E2.37026
G1 X85.000 Y77.750 E2.50444
G1 X115.000 Y77.750 E4.81861
G1 X117.367 Y78.147 E5.00375
G1 X119.474 Y79.296 E5.18888 F900.000
G1 X121.091 Y81.069 E5.37401
G1 X122.041 Y83.273 E5.55914
G1 X122.250 Y85.000 E5.69332
G1 X122.250 Y115.000 E8.00749
G1 X121.853 Y117.367 E8.19262
G1 X120.704 Y119.474 E8.37775
G1 X118.931 Y121.091 E8.56288
G1 X116.727 Y122.041 E8.74801
G1 X115.000 Y122.250 E8.88220
G1 X85.000 Y122.250 E11.19637
G1 X82.633 Y121.853 E11.38150
G1 X80.526 Y120.704 E11.56663
G1 X78.909 Y118.931 E11.75176
G1 X77.959 Y116.727 E11.93689
G1 X77.750 Y115.000 E12.07107
G1 X77.750 Y85.000 E14.38524
G1 X78.147 Y82.633 E14.57037
G1 X79.267 Y80.578 E14.75088
G1 X79.860 Y80.850 F3600.000
G1 X79.915 Y80.753 E14.75951 F900.000
G1 X81.668 Y79.274 E14.93642
G1 X83.820 Y78.481 E15.11333
G1 X85.000 Y78.375 E15.20471
G1 X115.000 Y78.375 E17.51888
G1 X117.259 Y78.772 E17.69579
G1 X119.247 Y79.915 E17.87271 F900.000
G1 X120.726 Y81.668 E18.04962
G1 X121.519 Y83.820 E18.22654
G1 X121.625 Y85.000 E18.31791
G1 X121.625 Y115.000 E20.63208
G1 X121.228 Y117.259 E20.80899
G1 X120.085 Y119.247 E20.98591
G1 X118.332 Y120.726 E21.16282
G1 X116.180 Y121.519 E21.33974
G1 X115.000 Y121.625 E21.43111
G1 X85.000 Y121.625 E23.74528
G1 X82.741 Y121.228 E23.92220
G1 X80.753 Y120.085 E24.09911
G1 X79.274 Y118.332 E24.27603
G1 X78.481 Y116.180 E24.45294
G1 X78.375 Y115.000 E24.54431
G1 X78.375 Y85.000 E26.85848
G1 X78.772 Y82.741 E27.03540
G1 X79.830 Y80.902 E27.19905
G1 E25.19905 F2400.00000
G92 E0
G1 X107.768 Y108.627 F3600.000
G1 E2.00000 F2400.00000
G1 X105.804 Y110.053 E2.18720 F900.000
G1 X103.587 Y111.040 E2.37441
G1 X101.213 Y111.545 E2.56161
G1 X98.787 Y111.545 E2.74882
G1 X96.413 Y111.040 E2.93602
G1 X94.196 Y110.053 E3.12323
G1 X92.232 Y108.627 E3.31043
G1 X90.608 Y106.823 E3.49764
G1 X89.395 Y104.722 E3.68484
G1 X88.645 Y102.414 E3.87205
G1 X88.391 Y100.000 E4.05925
G1 X88.645 Y97.586 E4.24645
G1 X89.395 Y95.278 E4.43366
G1 X90.608 Y93.177 E4.62086
G1 X92.232 Y91.373 E4.80807
G1 X94.196 Y89.947 E4.99527
G1 X96.413 Y88.960 E5.18248
G1 X98.787 Y88.455 E5.36968
G1 X101.213 Y88.455 E5.55689 F900.000
G1 X103.587 Y88.960 E5.74409
G1 X105.804 Y89.947 E5.93129
G1 X107.768 Y91.373 E6.11850
G1 X109.392 Y93.177 E6.30570
G1 X110.605 Y95.278 E6.49291
G1 X111.355 Y97.586 E6.68011
G1 X111.609 Y100.000 E6.86732
G1 X111.355 Y102.414 E7.05452
G1 X110.605 Y104.722 E7.24173
G1 X109.391 Y106.823 E7.42893
G1 X107.808 Y108.582 E7.61151
G1 X107.347 Y108.160 F3600.000
G1 X105.490 Y109.509 E7.78858 F900.000
G1 X103.393 Y110.443 E7.96565
G1 X101.148 Y110.920 E8.14272
G1 X98.852 Y110.920 E8.31979
G1 X96.607 Y110.443 E8.49687
G1 X94.510 Y109.509 E8.67394
G1 X92.653 Y108.160 E8.85101
G1 X91.117 Y106.454 E9.02808
G1 X89.969 Y104.466 E9.20515
G1 X89.260 Y102.283 E9.38222
G1 X89.020 Y100.000 E9.55930
G1 X89.260 Y97.717 E9.73637
G1 X89.969 Y95.534 E9.91344
G1 X91.117 Y93.546 E10.09051
G1 X92.653 Y91.840 E10.26758
G1 X94.510 Y90.491 E10.44465
G1 X96.607 Y89.557 E10.62173
G1 X98.852 Y89.080 E10.79880
G1 X101.148 Y89.080 E10.97587 F900.000
G1 X103.393 Y89.557 E11.15294
G1 X105.490 Y90.491 E11.33001
G1 X107.347 Y91.840 E11.50708
G1 X108.883 Y93.546 E11.68416
G1 X110.031 Y95.534 E11.86123
G1 X110.740 Y97.717 E12.03830
G1 X110.980 Y100.000 E12.21537
G1 X110.740 Y102.283 E12.39244
G1 X110.031 Y104.466 E12.56951
G1 X108.883 Y106.454 E12.74659
G1 X107.387 Y108.115 E12.91903
G1 X106.927 Y107.693 F3600.000
G1 X105.176 Y108.965 E13.08597 F450.000
G1 X103.199 Y109.845 E13.25291
G1 X101.082 Y110.295 E13.41985
G1 X98.918 Y110.295 E13.58679
G1 X96.801 Y109.845 E13.75372
G1 X94.824 Y108.965 E13.92066
G1 X93.073 Y107.693 E14.08760
G1 X91.625 Y106.085 E14.25454
G1 X90.543 Y104.210 E14.42148
G1 X89.874 Y102.152 E14.58842
G1 X89.648 Y100.000 E14.75536
G1 X89.874 Y97.848 E14.92230
G1 X90.543 Y95.790 E15.08924
G1 X91.625 Y93.915 E15.25618
G1 X93.073 Y92.307 E15.42311
G1 X94.824 Y91.035 E15.59005
G1 X96.801 Y90.155 E15.75699
G1 X98.918 Y89.705 E15.92393
G1 X101.082 Y89.705 E16.09087 F450.000
G1 X103.199 Y90.155 E16.25781
G1 X105.176 Y91.035 E16.42475
G1 X106.927 Y92.307 E16.59169
G1 X108.375 Y93.915 E16.75863
G1 X109.457 Y95.790 E16.92557
G1 X110.126 Y97.848 E17.09250
G1 X110.352 Y100.000 E17.25944
G1 X110.126 Y102.152 E17.42638
G1 X109.457 Y104.210 E17.59332
G1 X108.375 Y106.085 E17.76026
G1 X106.967 Y107.648 E17.92257
G1 X106.996 Y108.087 F3600.000
G1 X113.400 Y113.400 F3600.000
G1 X86.600 Y113.400 E19.98994 F900.000
G1 X86.600 Y86.600 E22.05731
G1 X113.400 Y86.600 E24.12467
G1 X113.400 Y113.340 E26.18741
G1 X114.025 Y114.025 F3600.000
G1 X85.975 Y114.025 E28.35119 F900.000
G1 X85.975 Y85.975 E30.51496
G1 X114.025 Y85.975 E32.67874
G1 X114.025 Y113.965 E34.83788
G1 X114.650 Y114.650 F3600.000
G1 X85.350 Y114.650 E37.09806 F450.000
G1 X85.350 Y85.350 E39.35824
G1 X114.650 Y85.350 E41.61842
G1 X114.650 Y114.590 E43.87398
G1 X114.304 Y114.450 F3600.000
G1 X96.643 Y111.284 F3600.000
G1 X98.600 Y113.240 E44.08827 F450.000
G1 X99.487 Y113.240 E44.15700
G1 X97.770 Y111.523 E44.34506
G1 X98.839 Y111.705 E44.42901
G1 X100.374 Y113.240 E44.59721
G1 X101.262 Y113.240 E44.66594
G1 X99.726 Y111.705 E44.83414
G1 X100.613 Y111.705 E44.90286
G1 X102.149 Y113.240 E45.07106
G1 X103.036 Y113.240 E45.13978
G1 X101.432 Y111.637 E45.31545
G1 X102.164 Y111.481 E45.37340
G1 X103.924 Y113.240 E45.56611
G1 X104.811 Y113.240 E45.63483
G1 X102.896 Y111.326 E45.84458
G1 X103.615 Y111.157 E45.90174
G1 X105.698 Y113.240 E46.12997
G1 X106.586 Y113.240 E46.19870
G1 X104.229 Y110.883 E46.45687
G1 X104.842 Y110.610 E46.50893
G1 X107.473 Y113.240 E46.79704
G1 X108.360 Y113.240 E46.86577
G1 X105.456 Y110.337 E47.18382
G1 X106.029 Y110.022 E47.23444
G1 X109.247 Y113.240 E47.58693
G1 X110.135 Y113.240 E47.65565
G1 X106.543 Y109.649 E48.04904
G1 X107.057 Y109.276 E48.09824
G1 X111.022 Y113.240 E48.53253
G1 X111.909 Y113.240 E48.60125
G1 X107.571 Y108.902 E49.07644
G1 X108.039 Y108.483 E49.12511
G1 X112.797 Y113.240 E49.64624
G1 X113.240 Y112.797 E49.69483
G1 X108.459 Y108.016 E50.21851
G1 X108.880 Y107.549 E50.26717
G1 X113.240 Y111.909 E50.74481
G1 X113.240 Y111.022 E50.81353
G1 X109.300 Y107.082 E51.24511
G1 X109.670 Y106.564 E51.29438
G1 X113.240 Y110.135 E51.68549
G1 X113.240 Y109.248 E51.75422
G1 X109.994 Y106.002 E52.10975
G1 X110.319 Y105.439 E52.16006
G1 X113.240 Y108.360 E52.48003
G1 X113.240 Y107.473 E52.54875
G1 X110.644 Y104.877 E52.83314
G1 X110.894 Y104.239 E52.88618
G1 X113.240 Y106.586 E53.14323
G1 X113.240 Y105.698 E53.21195
G1 X111.111 Y103.569 E53.44517
G1 X111.329 Y102.899 E53.49971
G1 X113.240 Y104.811 E53.70909
G1 X113.240 Y103.924 E53.77781
G1 X111.524 Y102.207 E53.96581
G1 X111.608 Y101.404 E54.02834
G1 X113.240 Y103.036 E54.20709
G1 X113.240 Y102.149 E54.27581
G1 X111.693 Y100.601 E54.44532
G1 X111.761 Y99.782 E54.50898
G1 X113.240 Y101.262 E54.67102
G1 X113.240 Y100.374 E54.73974
G1 X111.657 Y98.791 E54.91319
G1 X111.553 Y97.799 E54.99041
G1 X113.240 Y99.487 E55.17528
G1 X113.240 Y98.600 E55.24400
G1 X111.258 Y96.617 E55.46115
G1 X110.831 Y95.303 E55.56819
G1 X113.240 Y97.712 E55.83211
G1 X113.240 Y96.825 E55.90083
G1 X109.784 Y93.369 E56.27942
G1 X106.654 Y90.239 F3600.000
G1 X103.175 Y86.760 E56.66055 F450.000
G1 X104.062 Y86.760 E56.72928
G1 X113.240 Y95.938 E57.73460
G1 X113.240 Y95.051 E57.80333
G1 X104.949 Y86.760 E58.71146
G1 X105.837 Y86.760 E58.78019
G1 X113.240 Y94.163 E59.59113
G1 X113.240 Y93.276 E59.65986
G1 X106.724 Y86.760 E60.37361
G1 X107.611 Y86.760 E60.44233
G1 X113.240 Y92.389 E61.05890
G1 X113.240 Y91.501 E61.12762
G1 X108.499 Y86.760 E61.64700
G1 X109.386 Y86.760 E61.71572
G1 X113.240 Y90.614 E62.13790
G1 X113.240 Y89.727 E62.20663
G1 X110.273 Y86.760 E62.53162
G1 X111.161 Y86.760 E62.60034
G1 X113.240 Y88.839 E62.82814
G1 X113.240 Y87.952 E62.89687
G1 X112.048 Y86.760 E63.02748
G1 X112.935 Y86.760 E63.09620
G1 X113.240 Y87.065 E63.12962
G1 X104.766 Y89.238 F3600.000
G1 X102.288 Y86.760 E63.40107 F450.000
G1 X101.400 Y86.760 E63.46979
G1 X103.357 Y88.716 E63.68409
G1 X102.230 Y88.477 E63.77331
G1 X100.513 Y86.760 E63.96137
G1 X99.626 Y86.760 E64.03010
G1 X101.161 Y88.295 E64.19830
G1 X100.274 Y88.295 E64.26702
G1 X98.738 Y86.760 E64.43522
G1 X97.851 Y86.760 E64.50395
G1 X99.387 Y88.295 E64.67214
G1 X98.567 Y88.363 E64.73580
G1 X96.964 Y86.760 E64.91148
G1 X96.076 Y86.760 E64.98020
G1 X97.836 Y88.519 E65.17291
G1 X97.104 Y88.674 E65.23085
G1 X95.189 Y86.760 E65.44060
G1 X94.302 Y86.760 E65.50932
G1 X96.385 Y88.843 E65.73755
G1 X95.771 Y89.117 E65.78961
G1 X93.414 Y86.760 E66.04778
G1 X92.527 Y86.760 E66.11650
G1 X95.157 Y89.390 E66.40462
G1 X94.544 Y89.663 E66.45667
G1 X91.640 Y86.760 E66.77473
G1 X90.752 Y86.760 E66.84345
G1 X93.971 Y89.978 E67.19595
G1 X93.457 Y90.351 E67.24515
G1 X89.865 Y86.760 E67.63853
G1 X88.978 Y86.760 E67.70726
G1 X92.943 Y90.724 E68.14155
G1 X92.429 Y91.098 E68.19075
G1 X88.091 Y86.760 E68.66593
G1 X87.203 Y86.760 E68.73466
G1 X91.961 Y91.517 E69.25579
G1 X91.541 Y91.984 E69.30445
G1 X86.760 Y87.203 E69.82813
G1 X86.760 Y88.091 E69.89685
G1 X91.120 Y92.451 E70.37448
G1 X90.700 Y92.918 E70.42314
G1 X86.760 Y88.978 E70.85472
G1 X86.760 Y89.865 E70.92345
G1 X90.330 Y93.436 E71.31456
G1 X90.005 Y93.998 E71.36487
G1 X86.760 Y90.753 E71.72040
G1 X86.760 Y91.640 E71.78913
G1 X89.681 Y94.561 E72.10909
G1 X89.356 Y95.123 E72.15940
G1 X86.760 Y92.527 E72.44378
G1 X86.760 Y93.414 E72.51251
G1 X89.106 Y95.761 E72.76955
G1 X88.889 Y96.431 E72.82409
G1 X86.760 Y94.302 E73.05731
G1 X86.760 Y95.189 E73.12603
G1 X88.671 Y97.101 E73.33541
G1 X88.476 Y97.793 E73.39110
G1 X86.760 Y96.076 E73.57910
G1 X86.760 Y96.964 E73.64782
G1 X88.392 Y98.596 E73.82657
G1 X88.307 Y99.399 E73.88910
G1 X86.760 Y97.851 E74.05861
G1 X86.760 Y98.738 E74.12733
G1 X88.239 Y100.218 E74.28937
G1 X88.343 Y101.209 E74.36659
G1 X86.760 Y99.626 E74.54004
G1 X86.760 Y100.513 E74.60876
G1 X88.447 Y102.201 E74.79363
G1 X88.742 Y103.383 E74.88798
G1 X86.760 Y101.400 E75.10512
G1 X86.760 Y102.288 E75.17385
G1 X89.169 Y104.697 E75.43777
G1 X90.216 Y106.631 F3600.000
G1 X86.760 Y103.175 E75.81636 F450.000
G1 X86.760 Y104.062 E75.88508
G1 X95.938 Y113.240 E76.89041
G1 X95.050 Y113.240 E76.95913
G1 X86.760 Y104.950 E77.86726
G1 X86.760 Y105.837 E77.93599
G1 X94.163 Y113.240 E78.74693
G1 X93.276 Y113.240 E78.81565
G1 X86.760 Y106.724 E79.52940
G1 X86.760 Y107.611 E79.59813
G1 X92.389 Y113.240 E80.21469
G1 X91.501 Y113.240 E80.28341
G1 X86.760 Y108.499 E80.80278
G1 X86.760 Y109.386 E80.87151
G1 X90.614 Y113.240 E81.29368
G1 X89.727 Y113.240 E81.36241
G1 X86.760 Y110.273 E81.68740
G1 X86.760 Y111.161 E81.75612
G1 X88.839 Y113.240 E81.98392
G1 X87.952 Y113.240 E82.05264
G1 X86.760 Y112.048 E82.18325
G1 X86.760 Y112.935 E82.25198
G1 X87.065 Y113.240 E82.28539
G1 X93.345 Y109.761 F3600.000
G1 X96.825 Y113.240 E82.66654 F450.000
G1 X97.712 Y113.240 E82.73526
G1 X95.234 Y110.762 E83.00671
G1 Z0.650 F3600.000
G1 E81.00671 F2400.00000
G92 E0
G1 X107.405 Y108.127 F3600.000
G1 E2.00000 F2400.00000
G1 X107.361 Y108.176 E2.00291 F1800.000
G1 X105.501 Y109.528 E2.10485
G1 X103.400 Y110.463 E2.20678
G1 X101.150 Y110.941 E2.30872
G1 X98.850 Y110.941 E2.41066
G1 X96.600 Y110.463 E2.51259
G1 X94.499 Y109.528 E2.61453
G1 X92.639 Y108.176 E2.71647
G1 X91.100 Y106.467 E2.81840
G1 X89.950 Y104.475 E2.92034
G1 X89.239 Y102.287 E3.02228
G1 X88.998 Y100.000 E3.12422
G1 X89.239 Y97.713 E3.22615
G1 X89.950 Y95.525 E3.32809
G1 X91.100 Y93.533 E3.43003
G1 X92.639 Y91.824 E3.53196
G1 X94.499 Y90.472 E3.63390
G1 X96.600 Y89.537 E3.73584
G1 X98.850 Y89.059 E3.83778
G1 X101.150 Y89.059 E3.93971 F1800.000
G1 X103.400 Y89.537 E4.04165
G1 X105.501 Y90.472 E4.14359
G1 X107.361 Y91.824 E4.24552
G1 X108.900 Y93.533 E4.34746
G1 X110.050 Y95.525 E4.44940
G1 X110.761 Y97.713 E4.55133
G1 X111.002 Y100.000 E4.65327
G1 X110.761 Y102.287 E4.75521
G1 X110.050 Y104.475 E4.85715
G1 X108.900 Y106.467 E4.95908
G1 X107.446 Y108.082 E5.05545
G1 X107.094 Y107.847 F3600.000
G1 X105.290 Y109.163 E5.15442 F1800.000
G1 X103.270 Y110.063 E5.25246
G1 X101.106 Y110.522 E5.35049
G1 X98.894 Y110.522 E5.44853
G1 X96.730 Y110.063 E5.54656
G1 X94.710 Y109.163 E5.64459
G1 X92.920 Y107.863 E5.74263
G1 X91.440 Y106.219 E5.84066
G1 X90.334 Y104.303 E5.93870
G1 X89.651 Y102.200 E6.03673
G1 X89.420 Y100.000 E6.13477
G1 X89.651 Y97.800 E6.23280
G1 X90.334 Y95.697 E6.33084
G1 X91.440 Y93.781 E6.42887
G1 X92.920 Y92.137 E6.52690
G1 X94.710 Y90.837 E6.62494
G1 X96.730 Y89.937 E6.72297
G1 X98.894 Y89.478 E6.82101
G1 X101.106 Y89.478 E6.91904 F1800.000
G1 X103.270 Y89.937 E7.01708
G1 X105.290 Y90.837 E7.11511
G1 X107.080 Y92.137 E7.21314
G1 X108.560 Y93.781 E7.31118
G1 X109.666 Y95.697 E7.40921
G1 X110.349 Y97.800 E7.50725
G1 X110.580 Y100.000 E7.60528
G1 X110.349 Y102.200 E7.70332
G1 X109.666 Y104.303 E7.80135
G1 X108.560 Y106.219 E7.89939
G1 X107.134 Y107.802 E7.99380
G1 X106.826 Y107.581 F3600.000
G1 X105.101 Y108.834 E8.06954 F900.000
G1 X103.152 Y109.702 E8.14527
G1 X101.066 Y110.145 E8.22100
G1 X98.934 Y110.145 E8.29673
G1 X96.848 Y109.702 E8.37246
G1 X94.899 Y108.834 E8.44820
G1 X93.174 Y107.581 E8.52393
G1 X91.747 Y105.996 E8.59966
G1 X90.681 Y104.149 E8.67539
G1 X90.022 Y102.121 E8.75113
G1 X89.799 Y100.000 E8.82686
G1 X90.022 Y97.879 E8.90259
G1 X90.681 Y95.851 E8.97832
G1 X91.747 Y94.004 E9.05406
G1 X93.174 Y92.419 E9.12979
G1 X94.899 Y91.166 E9.20552
G1 X96.848 Y90.298 E9.28125
G1 X98.934 Y89.855 E9.35698
G1 X101.066 Y89.855 E9.43272 F900.000
G1 X103.152 Y90.298 E9.50845
G1 X105.101 Y91.166 E9.58418
G1 X106.826 Y92.419 E9.65991
G1 X108.253 Y94.004 E9.73565
G1 X109.319 Y95.851 E9.81138
G1 X109.978 Y97.879 E9.88711
G1 X110.201 Y100.000 E9.96284
G1 X109.978 Y102.121 E10.03857
G1 X109.319 Y104.149 E10.11431
G1 X108.253 Y105.996 E10.19004
G1 X106.866 Y107.536 E10.26364
G1 X106.895 Y107.975 F3600.000
G1 X114.004 Y114.004 F3600.000
G1 X85.996 Y114.004 E11.50499 F1800.000
G1 X85.996 Y85.996 E12.74633
G1 X114.004 Y85.996 E13.98768
G1 X114.004 Y113.944 E15.22636
G1 X114.423 Y114.423 F3600.000
G1 X85.577 Y114.423 E16.50484 F1800.000
G1 X85.577 Y85.577 E17.78331
G1 X114.423 Y85.577 E19.06179
G1 X114.423 Y114.363 E20.33760
G1 X114.800 Y114.800 F3600.000
G1 X85.200 Y114.800 E21.38875 F900.000
G1 X85.200 Y85.200 E22.43990
G1 X114.800 Y85.200 E23.49105
G1 X114.800 Y114.740 E24.54007
G1 X114.454 Y114.600 F3600.000
G1 X113.686 Y113.903 F3600.000
G1 X113.903 Y113.686 E24.55374 F900.000
G1 X113.903 Y113.092 E24.58008
G1 X113.092 Y113.903 E24.63099
G1 X112.499 Y113.903 E24.65733
G1 X113.903 Y112.499 E24.74549
G1 X113.903 Y111.906 E24.77183
G1 X111.906 Y113.903 E24.89724
G1 X111.312 Y113.903 E24.92357
G1 X113.903 Y111.312 E25.08623
G1 X113.903 Y110.719 E25.11257
G1 X110.719 Y113.903 E25.31247
G1 X110.126 Y113.903 E25.33881
G1 X113.903 Y110.126 E25.57596
G1 X113.903 Y109.532 E25.60229
G1 X109.532 Y113.903 E25.87669
G1 X108.939 Y113.903 E25.90303
G1 X113.903 Y108.939 E26.21467
G1 X113.903 Y108.346 E26.24101
G1 X108.346 Y113.903 E26.58990
G1 X107.753 Y113.903 E26.61624
G1 X113.903 Y107.753 E27.00237
G1 X113.903 Y107.159 E27.02871
G1 X107.159 Y113.903 E27.45209
G1 X106.566 Y113.903 E27.47843
G1 X113.903 Y106.566 E27.93906
G1 X113.903 Y105.973 E27.96540
G1 X105.973 Y113.903 E28.46328
G1 X105.379 Y113.903 E28.48962
G1 X113.903 Y105.379 E29.02474
G1 X113.903 Y104.786 E29.05108
G1 X104.786 Y113.903 E29.62345
G1 X104.193 Y113.903 E29.64979
G1 X113.903 Y104.193 E30.25941
G1 X113.903 Y103.599 E30.28574
G1 X103.599 Y113.903 E30.93261
